!!!COM: Haydn, Franz Joseph
!!!OPR: Symphony in D Major
!!!OTL: Affettuoso 
!!!OMV: 4
!!!SCT: H I:96
!!!SCA: Thematisch-bibliographisches Werkevererzeichnis (A. van Hoboken)
!!!YOR: Dover Edition
!!!EED: Frances Bennion
!!!ENC: Frances Bennion
!!!CDT: 1732/3/31/-1809/5/31/
!!!OCY: Österreich
!!!YEC: Copyright (c) 1994, 2000 Center for Computer Assisted Research in the Humanities
!!!YEM: Rights to all derivative editions reserved.
!!!YEM: Refer to licensing agreement for further details.
!!!YEN: United States of America
**kern	**kern	**kern	**kern	**kern	**kern	**kern	**kern	**kern	**kern	**kern	**kern	**kern	**kern	**kern	**kern
*k[b-]	*k[]	*k[]	*k[f#c#]	*k[f#c#]	*k[f#c#]	*k[f#c#]	*k[f#c#]	*k[f#c#]	*k[f#c#]	*k[f#c#]	*k[f#c#]	*k[f#c#]	*k[]	*k[]	*k[]
*d:	*d:	*d:	*d:	*d:	*d:	*d:	*d:	*d:	*d:	*d:	*d:	*d:	*d:	*d:	*d:
*clefF	*clefF	*clefF4	*clefF	*clefF	*clefC3	*clefF4	*clefF4	*clefF	*clefF	*clefF	*clefF4	*clefF4	*clefF	*clefF	*clefF
*M2/4	*M2/4	*M2/4	*M2/4	*M2/4	*M2/4	*M2/4	*M2/4	*M2/4	*M2/4	*M2/4	*M2/4	*M2/4	*M2/4	*M2/4	*M2/4
*tb32	*tb32	*tb32	*tb32	*tb32	*tb32	*tb32	*tb32	*tb32	*tb32	*tb32	*tb32	*tb32	*tb32	*tb32	*tb32
=0-	=0-	=0-	=0-	=0-	=0-	=0-	=0-	=0-	=0-	=0-	=0-	=0-	=0-	=0-	=0-
4r	4r	4r	4r	4r	4r	4r	4r	4r	4r	4r	4r	4r	4r	4r	4r
4r	4r	4r	8dd	4r	4r	4r	4r	4r	4r	4r	4r	4r	4r	4r	4r
.	.	.	8a	.	.	.	.	.	.	.	.	.	.	.	.
=1	=1	=1	=1	=1	=1	=1	=1	=1	=1	=1	=1	=1	=1	=1	=1
2r	2r	2r	8f#	8f#	8A	8D	8D	2r	2r	2r	2r	2r	2r	2r	2r
.	.	.	8a	8r	8r	8r	8r	.	.	.	.	.	.	.	.
.	.	.	8g	8c#	8A	8A	8A	.	.	.	.	.	.	.	.
.	.	.	8e	8r	8r	8r	8r	.	.	.	.	.	.	.	.
=2	=2	=2	=2	=2	=2	=2	=2	=2	=2	=2	=2	=2	=2	=2	=2
2r	2r	2r	8f#	8d	4A	4D	4D	2r	2r	2r	2r	2r	2r	2r	2r
.	.	.	8d	8r	.	.	.	.	.	.	.	.	.	.	.
.	.	.	8a	8f#	4r	4r	4r	.	.	.	.	.	.	.	.
.	.	.	8dd	8r	.	.	.	.	.	.	.	.	.	.	.
=3	=3	=3	=3	=3	=3	=3	=3	=3	=3	=3	=3	=3	=3	=3	=3
2r	2r	2r	8cc#	8e	8A	4A	4A	2r	2r	2r	2r	2r	2r	2r	2r
.	.	.	8a	8r	8r	.	.	.	.	.	.	.	.	.	.
.	.	.	8dd	8d	8A	8F#	8F#	.	.	.	.	.	.	.	.
.	.	.	8ff#	8r	8r	8D	8D	.	.	.	.	.	.	.	.
=4	=4	=4	=4	=4	=4	=4	=4	=4	=4	=4	=4	=4	=4	=4	=4
2r	2r	2r	8ee	4c#	4A	4A	4A	2r	2r	2r	2r	2r	2r	2r	2r
.	.	.	8a	.	.	.	.	.	.	.	.	.	.	.	.
.	.	.	8dd	4r	4r	4r	4r	.	.	.	.	.	.	.	.
.	.	.	8a	.	.	.	.	.	.	.	.	.	.	.	.
=5	=5	=5	=5	=5	=5	=5	=5	=5	=5	=5	=5	=5	=5	=5	=5
2r	2r	2r	8f#	8f#	8A	8D	8D	2r	2r	2r	2r	2r	2r	2r	2r
.	.	.	8a	8r	8r	8r	8r	.	.	.	.	.	.	.	.
.	.	.	8g	8c#	8A	8A	8A	.	.	.	.	.	.	.	.
.	.	.	8e	8r	8r	8r	8r	.	.	.	.	.	.	.	.
=6	=6	=6	=6	=6	=6	=6	=6	=6	=6	=6	=6	=6	=6	=6	=6
2r	2r	2r	8f#	8d	4A	4D	4D	2r	2r	2r	2r	2r	2r	2r	2r
.	.	.	8d	8r	.	.	.	.	.	.	.	.	.	.	.
.	.	.	8ff#	8d	4r	4r	4r	.	.	.	.	.	.	.	.
.	.	.	8b	8r	.	.	.	.	.	.	.	.	.	.	.
=7	=7	=7	=7	=7	=7	=7	=7	=7	=7	=7	=7	=7	=7	=7	=7
2r	2r	2r	8ee	8c#	4r	4r	4r	2r	2r	2r	2r	2r	2r	2r	2r
.	.	.	8a	8r	.	.	.	.	.	.	.	.	.	.	.
.	.	.	8dd	8G#	4e	4E	4E	.	.	.	.	.	.	.	.
.	.	.	8g#	8B	.	.	.	.	.	.	.	.	.	.	.
=8	=8	=8	=8	=8	=8	=8	=8	=8	=8	=8	=8	=8	=8	=8	=8
4r	4r	4r	8a	4c#	4e	4AA	4AA	4r	4r	4r	4r	4r	4r	4r	4r
.	.	.	8r	.	.	.	.	.	.	.	.	.	.	.	.
4r	4r	4r	8aa	8r	8r	8r	4r	4r	4r	4r	4r	4r	4r	4r	4r
.	.	.	8a	8e	8c#	8c#	.	.	.	.	.	.	.	.	.
=9	=9	=9	=9	=9	=9	=9	=9	=9	=9	=9	=9	=9	=9	=9	=9
2r	2r	2r	8b-	8f	8d	8d	2r	2r	2r	2r	2r	2r	2r	2r	2r
.	.	.	8a	8e	8c#	8c#	.	.	.	.	.	.	.	.	.
.	.	.	8aa	8r	8r	8r	.	.	.	.	.	.	.	.	.
.	.	.	8cc#	8g	8e	8e	.	.	.	.	.	.	.	.	.
=10	=10	=10	=10	=10	=10	=10	=10	=10	=10	=10	=10	=10	=10	=10	=10
2r	2r	2r	8dd	8a	8f	8f	2r	2r	2r	2r	2r	2r	2r	2r	2r
.	.	.	8cc#	8g	8e	8e	.	.	.	.	.	.	.	.	.
.	.	.	8aa	8r	8r	8r	.	.	.	.	.	.	.	.	.
.	.	.	8dd	8a	8f	8f	.	.	.	.	.	.	.	.	.
=11	=11	=11	=11	=11	=11	=11	=11	=11	=11	=11	=11	=11	=11	=11	=11
2r	2r	2r	8ee	8b-	8g	8g	4.r	2r	2r	2r	2r	2r	2r	2r	2r
.	.	.	8dd	8a	8f	8f	.	.	.	.	.	.	.	.	.
.	.	.	8ddd	8r	8r	8r	.	.	.	.	.	.	.	.	.
.	.	.	8aa	8dd	8d	8F#	8F#	.	.	.	.	.	.	.	.
=12	=12	=12	=12	=12	=12	=12	=12	=12	=12	=12	=12	=12	=12	=12	=12
2r	2r	2r	8bb-	4dd	4d	4G	4G	2r	2r	2r	2r	2r	2r	2r	2r
.	.	.	8gg	.	.	.	.	.	.	.	.	.	.	.	.
.	.	.	8ddd	8r	8r	8r	8r	.	.	.	.	.	.	.	.
.	.	.	8ff#	8dd	8d	8A	8A	.	.	.	.	.	.	.	.
=13	=13	=13	=13	=13	=13	=13	=13	=13	=13	=13	=13	=13	=13	=13	=13
2r	2r	2r	8gg	4dd	4d	4B-	4B-	2r	2r	2r	2r	2r	2r	2r	2r
.	.	.	8dd	.	.	.	.	.	.	.	.	.	.	.	.
.	.	.	8ddd	8r	8r	8r	8r	.	.	.	.	.	.	.	.
.	.	.	8aa	8dd	8d	8F#	8F#	.	.	.	.	.	.	.	.
=14	=14	=14	=14	=14	=14	=14	=14	=14	=14	=14	=14	=14	=14	=14	=14
2r	2r	2r	8bb-	4dd	4d	4G	4G	2r	2r	2r	2r	2r	2r	2r	2r
.	.	.	8gg	.	.	.	.	.	.	.	.	.	.	.	.
.	.	.	8bb-	4r	8r	8r	8r	.	.	.	.	.	.	.	.
.	.	.	8ff#	.	8c	8A	8A	.	.	.	.	.	.	.	.
=15	=15	=15	=15	=15	=15	=15	=15	=15	=15	=15	=15	=15	=15	=15	=15
2r	2r	2r	8gg	4.d	8d	8B-	8B-	2r	2r	2r	2r	2r	2r	2r	2r
.	.	.	8ff	.	8c	8A	8A	.	.	.	.	.	.	.	.
.	.	.	8ee	.	8B-	8G	8G	.	.	.	.	.	.	.	.
.	.	.	8dd	16f	8G#	8G#	8G#	.	.	.	.	.	.	.	.
.	.	.	.	16d	.	.	.	.	.	.	.	.	.	.	.
=16	=16	=16	=16	=16	=16	=16	=16	=16	=16	=16	=16	=16	=16	=16	=16
2r	2r	2r	8aa	8c#	8A	4A	4A	2r	2r	2r	2r	2r	2r	2r	2r
.	.	.	8r	8r	8c#	.	.	.	.	.	.	.	.	.	.
.	.	.	8ff	4g#	8d	4r	4r	.	.	.	.	.	.	.	.
.	.	.	8dd	.	8f	.	.	.	.	.	.	.	.	.	.
=17	=17	=17	=17	=17	=17	=17	=17	=17	=17	=17	=17	=17	=17	=17	=17
2r	2r	2r	8cc#	8a	8e	4A	4A	2r	2r	2r	2r	2r	2r	2r	2r
.	.	.	8a	8r	8c#	.	.	.	.	.	.	.	.	.	.
.	.	.	8ff	4g#	8d	4r	4r	.	.	.	.	.	.	.	.
.	.	.	8dd	.	8f	.	.	.	.	.	.	.	.	.	.
=18	=18	=18	=18	=18	=18	=18	=18	=18	=18	=18	=18	=18	=18	=18	=18
2r	2r	2r	8cc#	8a	8e	4A	4A	2r	2r	2r	2r	2r	2r	2r	2r
.	.	.	8a	4.r	8c#	.	.	.	.	.	.	.	.	.	.
.	.	.	8gg	.	4r	4r	4r	.	.	.	.	.	.	.	.
.	.	.	8ee	.	.	.	.	.	.	.	.	.	.	.	.
=19	=19	=19	=19	=19	=19	=19	=19	=19	=19	=19	=19	=19	=19	=19	=19
2r	2r	2r	8cc#	4g 4A	4e 4A	2r	2r	2r	2r	2r	2r	2r	2r	2r	2r
.	.	.	8a	.	.	.	.	.	.	.	.	.	.	.	.
.	.	.	8gg	4r	4r	.	.	.	.	.	.	.	.	.	.
.	.	.	8ee	.	.	.	.	.	.	.	.	.	.	.	.
=20	=20	=20	=20	=20	=20	=20	=20	=20	=20	=20	=20	=20	=20	=20	=20
2r	2r	2r	8cc#	4A 4g	4e 4A	4r	4r	2r	2r	2r	2r	2r	2r	2r	2r
.	.	.	8a	.	.	.	.	.	.	.	.	.	.	.	.
.	.	.	8g	8g	8g	8G	8G	.	.	.	.	.	.	.	.
.	.	.	8e	8e	8e	8E	8E	.	.	.	.	.	.	.	.
=21	=21	=21	=21	=21	=21	=21	=21	=21	=21	=21	=21	=21	=21	=21	=21
2r	2r	2r	8c#	8c#	8c#	8C#	8C#	2r	2r	2r	2r	2r	2r	2r	2r
.	.	.	8A	8A	8A	8AA	8AA	.	.	.	.	.	.	.	.
.	.	.	8g	8g	8g	8G	8G	.	.	.	.	.	.	.	.
.	.	.	8e	8e	8e	8E	8E	.	.	.	.	.	.	.	.
=22	=22	=22	=22	=22	=22	=22	=22	=22	=22	=22	=22	=22	=22	=22	=22
2r	2r	2r	8c#	8c#	8c#	8C#	8C#	2r	2r	2r	2r	2r	2r	2r	2r
.	.	.	8A	8A	8A	8AA	8AA	.	.	.	.	.	.	.	.
.	.	.	8gg	4r	4r	4r	4r	.	.	.	.	.	.	.	.
.	.	.	8ee	.	.	.	.	.	.	.	.	.	.	.	.
=23	=23	=23	=23	=23	=23	=23	=23	=23	=23	=23	=23	=23	=23	=23	=23
2r	2r	2r	8cc#	4A 4g	4e 4A	2r	2r	2r	2r	2r	2r	2r	2r	2r	2r
.	.	.	8a	.	.	.	.	.	.	.	.	.	.	.	.
.	.	.	8gg	4r	4r	.	.	.	.	.	.	.	.	.	.
.	.	.	8ee	.	.	.	.	.	.	.	.	.	.	.	.
=24	=24	=24	=24	=24	=24	=24	=24	=24	=24	=24	=24	=24	=24	=24	=24
2r	2r	2r	8cc#	4A 4g	4e 4A	2r	2r	2r	2r	2r	2r	2r	2r	2r	2r
.	.	.	8a	.	.	.	.	.	.	.	.	.	.	.	.
.	.	.	8g#	4r	4r	.	.	.	.	.	.	.	.	.	.
.	.	.	8a	.	.	.	.	.	.	.	.	.	.	.	.
=25	=25	=25	=25	=25	=25	=25	=25	=25	=25	=25	=25	=25	=25	=25	=25
2r	2r	2r	8g#	2r	2r	2r	2r	2r	2r	2r	2r	2r	2r	2r	2r
.	.	.	8a	.	.	.	.	.	.	.	.	.	.	.	.
.	.	.	8b-	.	.	.	.	.	.	.	.	.	.	.	.
.	.	.	8a	.	.	.	.	.	.	.	.	.	.	.	.
=26	=26	=26	=26	=26	=26	=26	=26	=26	=26	=26	=26	=26	=26	=26	=26
2r	2r	2r	8b	2r	2r	2r	2r	2r	2r	2r	2r	2r	2r	2r	2r
.	.	.	8a	.	.	.	.	.	.	.	.	.	.	.	.
.	.	.	8cc	.	.	.	.	.	.	.	.	.	.	.	.
.	.	.	8a	.	.	.	.	.	.	.	.	.	.	.	.
=27	=27	=27	=27	=27	=27	=27	=27	=27	=27	=27	=27	=27	=27	=27	=27
2r	2r	2r	8cc#	2r	2r	2r	2r	2r	2r	2r	2r	2r	2r	2r	2r
.	.	.	8a	.	.	.	.	.	.	.	.	.	.	.	.
.	.	.	8dd	.	.	.	.	.	.	.	.	.	.	.	.
.	.	.	8a	.	.	.	.	.	.	.	.	.	.	.	.
=28	=28	=28	=28	=28	=28	=28	=28	=28	=28	=28	=28	=28	=28	=28	=28
4r	2r	2r	8dd	2r	2r	2r	2r	2r	2r	2r	2r	2r	2r	2r	2r
.	.	.	8a	.	.	.	.	.	.	.	.	.	.	.	.
8ddd	.	.	8dd	.	.	.	.	.	.	.	.	.	.	.	.
8aa	.	.	8a	.	.	.	.	.	.	.	.	.	.	.	.
=29	=29	=29	=29	=29	=29	=29	=29	=29	=29	=29	=29	=29	=29	=29	=29
8ff#	2r	2r	8f#	8f#	8A	8D	8D	2r	2r	2r	8D	2r	2r	2r	2r
8aa	.	.	8a	8r	8r	8r	8r	.	.	.	8r	.	.	.	.
8gg	.	.	8g	8c#	8A	8A	8A	.	.	.	8A	.	.	.	.
8ee	.	.	8e	8r	8r	8r	8r	.	.	.	8r	.	.	.	.
=30	=30	=30	=30	=30	=30	=30	=30	=30	=30	=30	=30	=30	=30	=30	=30
8ff#	2r	2r	8f#	8d	4A	4D	4D	2r	2r	2r	4D	2r	2r	2r	2r
8dd	.	.	8d	8r	.	.	.	.	.	.	.	.	.	.	.
8aa	.	.	8a	8f#	4r	4r	4r	.	.	.	4r	.	.	.	.
8ddd	.	.	8dd	8r	.	.	.	.	.	.	.	.	.	.	.
=31	=31	=31	=31	=31	=31	=31	=31	=31	=31	=31	=31	=31	=31	=31	=31
8ccc#	2r	2r	8cc#	8e	8A	4A	4A	2r	2r	2r	4A	2r	2r	2r	2r
8aa	.	.	8a	8r	8r	.	.	.	.	.	.	.	.	.	.
8ddd	.	.	8dd	8d	8A	8F#	8F#	.	.	.	8F#	.	.	.	.
8ff#	.	.	8ff#	8r	8r	8D	8D	.	.	.	8D	.	.	.	.
=32	=32	=32	=32	=32	=32	=32	=32	=32	=32	=32	=32	=32	=32	=32	=32
8ee	2r	2r	8ee	4c#	4A	4A	4A	2r	2r	2r	4A	2r	2r	2r	2r
8a	.	.	8a	.	.	.	.	.	.	.	.	.	.	.	.
8eee	.	.	8ee	4r	4r	4r	4r	.	.	.	4r	.	.	.	.
8bb	.	.	8b	.	.	.	.	.	.	.	.	.	.	.	.
=33	=33	=33	=33	=33	=33	=33	=33	=33	=33	=33	=33	=33	=33	=33	=33
8gg	2r	2r	8g	8g	8B	8E	8E	2r	2r	2r	8E	2r	2r	2r	2r
8bb	.	.	8b	8r	8r	8r	8r	.	.	.	8r	.	.	.	.
8aa	.	.	8a	8d#	8B	8B	8B	.	.	.	8B	.	.	.	.
8ff#	.	.	8f#	8r	8r	8r	8r	.	.	.	8r	.	.	.	.
=34	=34	=34	=34	=34	=34	=34	=34	=34	=34	=34	=34	=34	=34	=34	=34
8gg	2r	2r	8g	4e	4B	4E	4E	2r	2r	2r	4E	2r	2r	2r	2r
8ee	.	.	8e	.	.	.	.	.	.	.	.	.	.	.	.
8gg	.	.	8gg	8r	8r	8r	8r	.	.	.	8r	.	.	.	.
8bb	.	.	8bb	8g	8c#	8C#	8C#	.	.	.	8C#	.	.	.	.
=35	=35	=35	=35	=35	=35	=35	=35	=35	=35	=35	=35	=35	=35	=35	=35
8aa	2r	2r	8aa	8f#	8d	4D	4D	2r	2r	2r	4D	2r	2r	2r	2r
8dd	.	.	8dd	8a	8r	.	.	.	.	.	.	.	.	.	.
8ee	.	.	8ee	8g	8A	4AA	4AA	.	.	.	4AA	.	.	.	.
8cc#	.	.	8cc#	8e	8r	.	.	.	.	.	.	.	.	.	.
=36	=36	=36	=36	=36	=36	=36	=36	=36	=36	=36	=36	=36	=36	=36	=36
4dd	2r	2r	8dd	8f#	8D	4DD	4DD	2r	4r	4r	4DD	2r	2r	2r	2r
.	.	.	8r	8r	8d	.	.	.	.	.	.	.	.	.	.
4r	.	.	8ddd	8bb	8d	4r	4r	.	8ddd	8bb	4r	.	.	.	.
.	.	.	8bb	8gg	8d	.	.	.	8bb	8gg	.	.	.	.	.
=37	=37	=37	=37	=37	=37	=37	=37	=37	=37	=37	=37	=37	=37	=37	=37
2r	2r	2r	8aa	8ff#	8d	4d	4d	2r	8aa	8ff#	4d	2r	2r	2r	2r
.	.	.	8dd	8dd	8d	.	.	.	8r	8r	.	.	.	.	.
.	.	.	8ddd	8bb	8d	4r	4r	.	8ddd	8bb	4r	.	.	.	.
.	.	.	8bb	8gg	8d	.	.	.	8bb	8gg	.	.	.	.	.
=38	=38	=38	=38	=38	=38	=38	=38	=38	=38	=38	=38	=38	=38	=38	=38
2r	2r	2r	8aa	8ff#	8d	4d	4d	2r	8aa	8ff#	4d	2r	2r	2r	2r
.	.	.	8dd	8dd	8d	.	.	.	8r	8r	.	.	.	.	.
.	.	.	8ddd	8bb	8d	4r	4r	.	8ddd	8bb	4r	.	.	.	.
.	.	.	8bb	8gg	8d	.	.	.	8bb	8gg	.	.	.	.	.
=39	=39	=39	=39	=39	=39	=39	=39	=39	=39	=39	=39	=39	=39	=39	=39
2r	2r	2r	8aa	8ff#	8d	8d	8d	2r	8aa	8ff#	8d	2r	2r	2r	2r
.	.	.	8gg#	8ee#	8d	8d	8d	.	8gg#	8ee#	8d	.	.	.	.
.	.	.	8aa	8ff#	8d	8d	8d	.	8aa	8ff#	8d	.	.	.	.
.	.	.	8gg#	8ee#	8d	8d	8d	.	8gg#	8ee#	8d	.	.	.	.
=40	=40	=40	=40	=40	=40	=40	=40	=40	=40	=40	=40	=40	=40	=40	=40
2r	2r	2r	4aa	4ff#	4d	4d	4d	2r	4aa	4ff#	4d	2r	2r	2r	2r
.	.	.	8r	8r	8r	4r	4r	.	4r	4r	4r	.	.	.	.
.	.	.	8gg	8g	8e	.	.	.	.	.	.	.	.	.	.
=41	=41	=41	=41	=41	=41	=41	=41	=41	=41	=41	=41	=41	=41	=41	=41
2r	2r	2r	8ff#	8a	8f#	2r	2r	2r	2r	2r	2r	2r	2r	2r	2r
.	.	.	8ee	8b	8g	.	.	.	.	.	.	.	.	.	.
.	.	.	8bb	8r	8r	.	.	.	.	.	.	.	.	.	.
.	.	.	8ff#	8f#	8d	.	.	.	.	.	.	.	.	.	.
=42	=42	=42	=42	=42	=42	=42	=42	=42	=42	=42	=42	=42	=42	=42	=42
2r	2r	2r	8ee	8g	8e	4.r	4.r	2r	2r	2r	4.r	2r	2r	2r	2r
.	.	.	8dd	8a	8f#	.	.	.	.	.	.	.	.	.	.
.	.	.	8aa	8r	8r	.	.	.	.	.	.	.	.	.	.
.	.	.	8gg	8b	8g	8G	8G	.	.	.	8G	.	.	.	.
=43	=43	=43	=43	=43	=43	=43	=43	=43	=43	=43	=43	=43	=43	=43	=43
2r	2r	2r	8ff#	8a	4a	4A	4A	2r	2r	2r	4A	2r	2r	2r	2r
.	.	.	8ee	8g	.	.	.	.	.	.	.	.	.	.	.
.	.	.	8dd	8f#	4A	4AA	4AA	.	.	.	4AA	.	.	.	.
.	.	.	8cc#	8e	.	.	.	.	.	.	.	.	.	.	.
=44	=44	=44	=44	=44	=44	=44	=44	=44	=44	=44	=44	=44	=44	=44	=44
2r	2r	2r	4dd	4f#	8r	8r	8r	2r	4.r	4.r	8r	2r	2r	2r	2r
.	.	.	.	.	8d	8D	8D	.	.	.	8D	.	.	.	.
.	.	.	8r	8r	8e	8E	8E	.	.	.	8E	.	.	.	.
.	.	.	8a	8f#	8f#	8F#	8F#	.	8aa	8ff#	8F#	.	.	.	.
=45	=45	=45	=45	=45	=45	=45	=45	=45	=45	=45	=45	=45	=45	=45	=45
2r	2r	2r	8g	8e	8r	8r	8r	2r	8gg	8ee	8r	2r	2r	2r	2r
.	.	.	8f#	8d#	8B	8B	8B	.	8ff#	8dd#	8B	.	.	.	.
.	.	.	8b	8g	8E	8E	8E	.	8bb	8gg	8E	.	.	.	.
.	.	.	8g	8e	8r	8r	8r	.	8gg	8ee	8r	.	.	.	.
=46	=46	=46	=46	=46	=46	=46	=46	=46	=46	=46	=46	=46	=46	=46	=46
2r	2r	2r	8f#	8d	8r	8r	8r	2r	8ff#	8dd	8r	2r	2r	2r	2r
.	.	.	8e	8c#	8A	8A	8A	.	8ee	8cc#	8A	.	.	.	.
.	.	.	8a	8f#	8D	8D	8D	.	8aa	8ff#	8D	.	.	.	.
.	.	.	8gg	8b	8G	8G	8G	.	8gg	8bb	8G	.	.	.	.
=47	=47	=47	=47	=47	=47	=47	=47	=47	=47	=47	=47	=47	=47	=47	=47
2r	2r	2r	8ff#	8a	4A	4A	4A	2r	8ff#	8aa	4A	2r	2r	2r	2r
.	.	.	8ee	8g	.	.	.	.	8ee	8gg	.	.	.	.	.
.	.	.	8dd	8f#	4A	4AA	4AA	.	8dd	8ff#	4AA	.	.	.	.
.	.	.	8cc#	8e	.	.	.	.	8cc#	8ee	.	.	.	.	.
=48	=48	=48	=48	=48	=48	=48	=48	=48	=48	=48	=48	=48	=48	=48	=48
4r	4r	4r	4dd	4d	4F#	4D	4D	4r	4dd	4dd	4D	4r	4r	4r	4r
4r	4r	4r	4r	4r	4r	4r	4r	4r	4r	4r	4r	4r	4r	4r	4r
=49	=49	=49	=49	=49	=49	=49	=49	=49	=49	=49	=49	=49	=49	=49	=49
4dd	4c	4C	4dd	4d	4D	8DD	8DD	4dd	4dd	4dd	4d	8DD	4cc	4c	4cc
.	.	.	.	.	.	8D	8D	.	.	.	.	8D	.	.	.
8r	4r	4r	8ddd	8dd	8D	8D	8D	8r	8r	8r	8r	8D	4r	4r	4r
8ff	.	.	8dd	8f	8a	8D	8D	8ff	8dd	8a	8d	8D	.	.	.
=50	=50	=50	=50	=50	=50	=50	=50	=50	=50	=50	=50	=50	=50	=50	=50
8gg	4c	4C	8ee	8g	8b-	8DD	8DD	8gg	8ee	8b-	8c#	8DD	4cc	4c	4cc
8ff	.	.	8dd	8f	8a	8D	8D	8ff	8dd	8a	8d	8D	.	.	.
8r	4r	4r	8ddd	8dd	8d	8D	8D	8r	8r	8r	8r	8D	4r	4r	4r
8ff	.	.	8dd	8f	8a	8D	8D	8ff	8dd	8a	8f	8D	.	.	.
=51	=51	=51	=51	=51	=51	=51	=51	=51	=51	=51	=51	=51	=51	=51	=51
8gg	4c	4C	8cc#	8g	8b-	8DD	8DD	8gg	8cc#	8b-	8g	8DD	4cc	4c	4cc
8ff	.	.	8dd	8f	8a	8D	8D	8ff	8dd	8a	8f	8D	.	.	.
8r	4r	4r	8ddd	8dd	8d	8D	8D	8r	8r	8r	8r	8D	4r	4r	4r
8ff	.	.	8dd	8f	8a	8D	8D	8ff	8dd	8a	8f	8D	.	.	.
=52	=52	=52	=52	=52	=52	=52	=52	=52	=52	=52	=52	=52	=52	=52	=52
8gg	4c	4C	8ee	8g	8b-	8DD	8DD	8gg	8ee	8b-	8c#	8DD	4cc	4c	4cc
8ff	.	.	8dd	8f	8a	8D	8D	8ff	8dd	8a	8d	8D	.	.	.
8r	4r	4r	8ddd	8dd	8d	8D	8D	8r	8r	8r	8r	8D	4r	4r	4r
8ff	.	.	8dd	8f	8a	8D	8D	8ff	8dd	8a	8f	8D	.	.	.
=53	=53	=53	=53	=53	=53	=53	=53	=53	=53	=53	=53	=53	=53	=53	=53
8gg	4c	4C	8cc#	8g	8b-	4D	4D	8gg	8cc#	8b-	8g	4D	4cc	4c	4cc
8ff	.	.	8dd	8f	8a	.	.	8ff	8dd	8a	8f	.	.	.	.
4r	4r	4r	8aa	8r	8r	8r	8r	4r	8aa	8r	8r	8r	4r	4r	4r
.	.	.	8bb-	8f	[8d	[8d	[8d	.	8bb-	8ff	8d	[8d	.	.	.
=54	=54	=54	=54	=54	=54	=54	=54	=54	=54	=54	=54	=54	=54	=54	=54
2r	2r	2r	8gg#	4e	8d]	8d]	8d]	2r	8gg#	4ee	8d	8d]	2r	2r	2r
.	.	.	8aa	.	8c#	8c#	8c#	.	8aa	.	8c#	8c#	.	.	.
.	.	.	8ff#	8d#	8c	8c	8c	.	8ff#	8ee-	8c	8c	.	.	.
.	.	.	8gg	8d	8B	8B	8B	.	8gg	8dd	8B	8B	.	.	.
=55	=55	=55	=55	=55	=55	=55	=55	=55	=55	=55	=55	=55	=55	=55	=55
4.r	2r	2r	8ee	4c	8B-	8B-	8B-	4.r	8ee	4cc	8B-	8B-	2r	2r	2r
.	.	.	8ff	.	8A	8A	8A	.	8ff	.	8A	8A	.	.	.
.	.	.	8r	8a	4r	4r	4r	.	8r	4r	4r	4r	.	.	.
[8ddd	.	.	[8ddd	8b-	.	.	.	[8ddd	8ff	.	.	.	.	.	.
=56	=56	=56	=56	=56	=56	=56	=56	=56	=56	=56	=56	=56	=56	=56	=56
8ddd]	2r	2r	8ddd]	8g#	2r	2r	2r	8ddd]	4ee	2r	2r	2r	2r	2r	2r
8ccc#	.	.	8ccc#	8a	.	.	.	8ccc#	.	.	.	.	.	.	.
8ccc	.	.	8ccc	8f#	.	.	.	8ccc	8ee-	.	.	.	.	.	.
8bb	.	.	8bb	8g	.	.	.	8bb	8dd	.	.	.	.	.	.
=57	=57	=57	=57	=57	=57	=57	=57	=57	=57	=57	=57	=57	=57	=57	=57
8bb-	2r	2r	8bb-	8e	4.r	4r	4r	8bb-	8dd-	2r	4r	4r	2r	2r	2r
8aa	.	.	8aa	8f	.	.	.	8aa	8cc	.	.	.	.	.	.
8gg	.	.	8gg	8d	.	8B-	8B-	8gg	4r	.	8B-	8B-	.	.	.
8bb-	.	.	8bb-	8dd	8b-	8G	8G	8bb-	.	.	8G	8G	.	.	.
=58	=58	=58	=58	=58	=58	=58	=58	=58	=58	=58	=58	=58	=58	=58	=58
8aa	2r	2r	8ff#	8dd#	8a	8c	8c	8aa	8ff#	8ee-	8c	8c	2r	2r	2r
8bb-	.	.	8gg	8dd	8g	8B-	8B-	8bb-	8gg	8dd	8B-	8B-	.	.	.
4r	.	.	8dd	8r	8r	8r	8r	4r	4r	4r	8r	8r	.	.	.
.	.	.	8bb-	8d	8b-	8G	8G	.	.	.	8G	8G	.	.	.
=59	=59	=59	=59	=59	=59	=59	=59	=59	=59	=59	=59	=59	=59	=59	=59
8aa	2r	2r	8ff#	8d#	8a	8c	8c	8aa	8ff#	8ee-	8c	8c	2r	2r	2r
8bb-	.	.	8gg	8d	8g	8B-	8B-	8bb-	8gg	8dd	8B-	8B-	.	.	.
4r	.	.	8dd	8r	8r	8r	8r	4r	4r	4r	8r	8r	.	.	.
.	.	.	8bb-	8dd	8b-	8G	8G	.	.	.	8G	8G	.	.	.
=60	=60	=60	=60	=60	=60	=60	=60	=60	=60	=60	=60	=60	=60	=60	=60
8aa	2r	2r	8ff#	8dd#	8a	8c	8c	8aa	8ff#	8ee-	8c	8c	2r	2r	2r
8bb-	.	.	8gg	8dd	8g	8B-	8B-	8bb-	8gg	8dd	8B-	8B-	.	.	.
4r	.	.	8ff	8r	8r	8r	8r	4r	8ff	4r	8r	8r	.	.	.
.	.	.	8gg	8d	8g	8B	8B	.	8gg	.	8B	8B	.	.	.
=61	=61	=61	=61	=61	=61	=61	=61	=61	=61	=61	=61	=61	=61	=61	=61
4cc	2r	2r	4ee	4c	8g	8c	8c	4cc	4ee	2r	8c	4c	2r	2r	2r
.	.	.	.	.	8c	8C	8C	.	.	.	4.r	.	.	.	.
4r	.	.	4r	4r	8c	8C	8C	4r	4r	.	.	4r	.	.	.
.	.	.	.	.	8c	8C	8C	.	.	.	.	.	.	.	.
=62	=62	=62	=62	=62	=62	=62	=62	=62	=62	=62	=62	=62	=62	=62	=62
2r	2r	2r	2r	2r	8c	8C	8C	2r	2r	2r	2r	2r	2r	2r	2r
.	.	.	.	.	8c	8C	8C	.	.	.	.	.	.	.	.
.	.	.	.	.	8c	8C	8C	.	.	.	.	.	.	.	.
.	.	.	.	.	8c	8C	8C	.	.	.	.	.	.	.	.
=63	=63	=63	=63	=63	=63	=63	=63	=63	=63	=63	=63	=63	=63	=63	=63
[2ddd-	2dd	2r	2ee 2b-	2b- 2g	[2d-	8C	8C	[2gg	[2ee	[2b-	[2d-	[2B-	2r	2r	2dd
.	.	.	.	.	.	8C	8C	.	.	.	.	.	.	.	.
.	.	.	.	.	.	8C	8C	.	.	.	.	.	.	.	.
.	.	.	.	.	.	8C	8C	.	.	.	.	.	.	.	.
=64	=64	=64	=64	=64	=64	=64	=64	=64	=64	=64	=64	=64	=64	=64	=64
2ddd-]	2r	2r	16e	2B-	2d-]	8C	8C	2gg]	2ee]	2b-]	2d-]	2B-]	2r	2r	2r
.	.	.	16f	.	.	.	.	.	.	.	.	.	.	.	.
.	.	.	16g	.	.	8C	8C	.	.	.	.	.	.	.	.
.	.	.	16f	.	.	.	.	.	.	.	.	.	.	.	.
.	.	.	8e	.	.	8C	8C	.	.	.	.	.	.	.	.
.	.	.	8r	.	.	8C	8C	.	.	.	.	.	.	.	.
=65	=65	=65	=65	=65	=65	=65	=65	=65	=65	=65	=65	=65	=65	=65	=65
[2ccc	2r	2r	2ff 2cc	[2A-	2c	8C	8C	[2aa-	[2ff	[2a-	2c	2A-	2r	2r	2r
.	.	.	.	.	.	8C	8C	.	.	.	.	.	.	.	.
.	.	.	.	.	.	8C	8C	.	.	.	.	.	.	.	.
.	.	.	.	.	.	8C	8C	.	.	.	.	.	.	.	.
=66	=66	=66	=66	=66	=66	=66	=66	=66	=66	=66	=66	=66	=66	=66	=66
2ccc]	2r	2r	16f	2A-]	2F	8C	8C	2aa-]	2ff]	2a-]	2A-	2F	2r	2r	2r
.	.	.	16g	.	.	.	.	.	.	.	.	.	.	.	.
.	.	.	16a-	.	.	8C	8C	.	.	.	.	.	.	.	.
.	.	.	16g	.	.	.	.	.	.	.	.	.	.	.	.
.	.	.	8f	.	.	8C	8C	.	.	.	.	.	.	.	.
.	.	.	8r	.	.	8C	8C	.	.	.	.	.	.	.	.
=67	=67	=67	=67	=67	=67	=67	=67	=67	=67	=67	=67	=67	=67	=67	=67
[2fff	[2cc	2r	2aa- 2b	2ff	2d	8C	8C	[2ff	[2aa-	[2b	2d	[2F	2r	2r	[2cc
.	.	.	.	.	.	8C	8C	.	.	.	.	.	.	.	.
.	.	.	.	.	.	8C	8C	.	.	.	.	.	.	.	.
.	.	.	.	.	.	8C	8C	.	.	.	.	.	.	.	.
=68	=68	=68	=68	=68	=68	=68	=68	=68	=68	=68	=68	=68	=68	=68	=68
2fff]	2cc]	2r	16B	4a-	2f	8C	8C	2ff]	2aa-]	2b]	2B	2F]	2r	2r	2cc]
.	.	.	16c	.	.	.	.	.	.	.	.	.	.	.	.
.	.	.	16d	.	.	8C	8C	.	.	.	.	.	.	.	.
.	.	.	16c	.	.	.	.	.	.	.	.	.	.	.	.
.	.	.	16B	4f	.	8C	8C	.	.	.	.	.	.	.	.
.	.	.	16c	.	.	.	.	.	.	.	.	.	.	.	.
.	.	.	16d	.	.	8C	8C	.	.	.	.	.	.	.	.
.	.	.	16B	.	.	.	.	.	.	.	.	.	.	.	.
=69	=69	=69	=69	=69	=69	=69	=69	=69	=69	=69	=69	=69	=69	=69	=69
4eee	4dd	2r	4c	4e	4e	4C	4C	4ee	4gg	4cc	4c	4C	2r	2r	4dd
4r	4r	.	4r	4r	8b-	8B-	8B-	4r	4r	4r	8B-	8B-	.	.	4r
.	.	.	.	.	8g	8G	8G	.	.	.	8G	8G	.	.	.
=70	=70	=70	=70	=70	=70	=70	=70	=70	=70	=70	=70	=70	=70	=70	=70
4cc	4dd	2r	4G 4e 4cc	4G 4cc 4e	8e	8E	8E	4cc	4cc	4e	8E	8E	2r	2r	4dd
.	.	.	.	.	8c	8C	8C	.	.	.	8C	8C	.	.	.
4r	4r	.	4r	4r	8b-	8B-	8B-	4r	4r	4r	8B-	8B-	.	.	4r
.	.	.	.	.	8g	8G	8G	.	.	.	8G	8G	.	.	.
=71	=71	=71	=71	=71	=71	=71	=71	=71	=71	=71	=71	=71	=71	=71	=71
4ee	4dd	2r	4ee 4g 4cc	4ee 4cc 4g	8e	8E	8E	4ee	4ee	4cc	8E	8E	2r	2r	4dd
.	.	.	.	.	8c	8C	8C	.	.	.	8C	8C	.	.	.
4r	4r	.	4r	4r	8b-	8B-	8B-	4r	4r	4r	8B-	8B-	.	.	4r
.	.	.	.	.	8g	8G	8G	.	.	.	8G	8G	.	.	.
=72	=72	=72	=72	=72	=72	=72	=72	=72	=72	=72	=72	=72	=72	=72	=72
4gg	4dd	2r	4e 4cc 4gg	4gg 4cc 4e	8e	8E	8E	4gg	4gg	4ee	8E	8E	2r	2r	4dd
.	.	.	.	.	8c	8C	8C	.	.	.	8C	8C	.	.	.
4r	4r	.	4r	4r	8b-	8B-	8B-	4r	4r	4r	8B-	8B-	.	.	4r
.	.	.	.	.	8g	8G	8G	.	.	.	8G	8G	.	.	.
=73	=73	=73	=73	=73	=73	=73	=73	=73	=73	=73	=73	=73	=73	=73	=73
4bb-	4dd	2r	4bb- 4e 4cc	4bb- 4e 4cc	8e	8E	8E	4bb-	4bb-	4gg	8E	8E	2r	2r	4dd
.	.	.	.	.	8c	8C	8C	.	.	.	8C	8C	.	.	.
8ddd	4r	.	8ddd	4r	4r	4r	4r	8ddd	4r	4r	4r	4r	.	.	4r
8bb-	.	.	8bb-	.	.	.	.	8bb-	.	.	.	.	.	.	.
=74	=74	=74	=74	=74	=74	=74	=74	=74	=74	=74	=74	=74	=74	=74	=74
8gg	4dd	2r	8gg	4e 4bb- 4cc	4g 4c	4C	4C	8gg	4bb-	4gg	4C	4C	2r	2r	4dd
8ee	.	.	8ee	.	.	.	.	8ee	.	.	.	.	.	.	.
8ddd	4r	.	8ddd	4r	4r	4r	4r	8ddd	4r	4r	4r	4r	.	.	4r
8bb-	.	.	8bb-	.	.	.	.	8bb-	.	.	.	.	.	.	.
=75	=75	=75	=75	=75	=75	=75	=75	=75	=75	=75	=75	=75	=75	=75	=75
8gg	4dd	2r	8gg	4e 4cc 4bb-	4g 4c	4C	4C	8gg	4bb-	4gg	4C	4C	2r	2r	4dd
8ee	.	.	8ee	.	.	.	.	8ee	.	.	.	.	.	.	.
16ddd	4r	.	16ddd	4r	4r	4r	4r	16ddd	4r	4r	4r	4r	.	.	4r
16ccc	.	.	16ccc	.	.	.	.	16ccc	.	.	.	.	.	.	.
16bb-	.	.	16bb-	.	.	.	.	16bb-	.	.	.	.	.	.	.
16aa	.	.	16aa	.	.	.	.	16aa	.	.	.	.	.	.	.
=76	=76	=76	=76	=76	=76	=76	=76	=76	=76	=76	=76	=76	=76	=76	=76
16gg	2dd	2r	16gg	2B- 2e	2c 2g	2C	2C	16gg	2bb-	2gg	2e	4e	2r	2r	2dd
16ff	.	.	16ff	.	.	.	.	16ff	.	.	.	.	.	.	.
16ee	.	.	16ee	.	.	.	.	16ee	.	.	.	.	.	.	.
16dd	.	.	16dd	.	.	.	.	16dd	.	.	.	.	.	.	.
16cc	.	.	16cc	.	.	.	.	16cc	.	.	.	4r	.	.	.
16b-	.	.	16b-	.	.	.	.	16b-	.	.	.	.	.	.	.
16a	.	.	16a	.	.	.	.	16a	.	.	.	.	.	.	.
16g	.	.	16g	.	.	.	.	16g	.	.	.	.	.	.	.
=77	=77	=77	=77	=77	=77	=77	=77	=77	=77	=77	=77	=77	=77	=77	=77
4f	4g	2r	4f	4A 4f	4f	4D	4D	4f	4aa	4ff	4f	4f	2r	2r	4g
8ff	4r	.	8ff	8ff	4A	4AA	4AA	8ff	4ff	4cc	4AA	4AA	.	.	4r
8cc	.	.	8cc	8cc	.	.	.	8cc	.	.	.	.	.	.	.
=78	=78	=78	=78	=78	=78	=78	=78	=78	=78	=78	=78	=78	=78	=78	=78
8dd	2r	2r	8dd	8dd	4B-	4BB-	4BB-	8dd	4gg	4dd	4BB-	4BB-	2r	2r	2r
8g	.	.	8g	8g	.	.	.	8g	.	.	.	.	.	.	.
8bb-	.	.	8bb-	8bb-	4c	4C	4C	8bb-	4ee	4b-	4C	4C	.	.	.
8ee	.	.	8ee	8ee	.	.	.	8ee	.	.	.	.	.	.	.
=79	=79	=79	=79	=79	=79	=79	=79	=79	=79	=79	=79	=79	=79	=79	=79
2ff	2r	2r	2ff	2ff	4f	4F	4F	2ff	[2ff	[2a	[2F	[2F	2r	2r	2r
.	.	.	.	.	8f	8f	8f	.	.	.	.	.	.	.	.
.	.	.	.	.	8c	8c	8c	.	.	.	.	.	.	.	.
=80	=80	=80	=80	=80	=80	=80	=80	=80	=80	=80	=80	=80	=80	=80	=80
2eee-	2r	2r	2eee-	2dd#	8A	8A	8A	2eee-	2ff]	2a]	2F]	2F]	2r	2r	2r
.	.	.	.	.	8F	8F	8F	.	.	.	.	.	.	.	.
.	.	.	.	.	8c	8c	8c	.	.	.	.	.	.	.	.
.	.	.	.	.	8A	8A	8A	.	.	.	.	.	.	.	.
=81	=81	=81	=81	=81	=81	=81	=81	=81	=81	=81	=81	=81	=81	=81	=81
2ddd	2cc	2r	2ddd	4dd	4F#	4F#	4F#	2ddd	[2aa	2cc	[2F#	[2F#	2r	2r	2cc
.	.	.	.	8cc	8cc	4r	4r	.	.	.	.	.	.	.	.
.	.	.	.	8a	8a	.	.	.	.	.	.	.	.	.	.
=82	=82	=82	=82	=82	=82	=82	=82	=82	=82	=82	=82	=82	=82	=82	=82
2ccc	2cc	2r	2ccc	8f#	8f#	2r	2r	2ccc	2aa]	2dd	2F#]	2F#]	2r	2r	2cc
.	.	.	.	8d	8d	.	.	.	.	.	.	.	.	.	.
.	.	.	.	8a	8a	.	.	.	.	.	.	.	.	.	.
.	.	.	.	8f#	8f#	.	.	.	.	.	.	.	.	.	.
=83	=83	=83	=83	=83	=83	=83	=83	=83	=83	=83	=83	=83	=83	=83	=83
2bb	4cc	2r	2bb	2g	4g	4G	4G	2bb	[2gg	[2b	[2G	[2G	2r	2r	4cc
.	4r	.	.	.	8f	8f	8f	.	.	.	.	.	.	.	4r
.	.	.	.	.	8d	8d	8d	.	.	.	.	.	.	.	.
=84	=84	=84	=84	=84	=84	=84	=84	=84	=84	=84	=84	=84	=84	=84	=84
2fff	2r	2r	2fff	2ff	8B	8B	8B	2fff	2gg]	2b]	2G]	2G]	2r	2r	2r
.	.	.	.	.	8G	8G	8G	.	.	.	.	.	.	.	.
.	.	.	.	.	8d	8d	8d	.	.	.	.	.	.	.	.
.	.	.	.	.	8B	8B	8B	.	.	.	.	.	.	.	.
=85	=85	=85	=85	=85	=85	=85	=85	=85	=85	=85	=85	=85	=85	=85	=85
2eee	2dd	2r	2eee	4ee	4G#	4G#	4G#	2eee	[2bb	2dd	[2G#	[2G#	2r	2r	2dd
.	.	.	.	8dd	8dd	4r	4r	.	.	.	.	.	.	.	.
.	.	.	.	8b	8b	.	.	.	.	.	.	.	.	.	.
=86	=86	=86	=86	=86	=86	=86	=86	=86	=86	=86	=86	=86	=86	=86	=86
2ddd	2dd	2r	2ddd	8g#	8g#	2r	2r	2ddd	2bb]	[2ee	2G#]	2G#]	2r	2r	2dd
.	.	.	.	8e	8e	.	.	.	.	.	.	.	.	.	.
.	.	.	.	8b	8b	.	.	.	.	.	.	.	.	.	.
.	.	.	.	8g#	8g#	.	.	.	.	.	.	.	.	.	.
=87	=87	=87	=87	=87	=87	=87	=87	=87	=87	=87	=87	=87	=87	=87	=87
4ccc#	2g	[2GG	4ccc#	2a	2a	8AA	8AA	4ccc#	4aa	4ee]	2A	[2AA	[2gg	[2g	[2dd
.	.	.	.	.	.	8A	8A	.	.	.	.	.	.	.	.
8eee	.	.	8eee	.	.	8A	8A	8eee	4r	4r	.	.	.	.	.
8ccc#	.	.	8ccc#	.	.	8A	8A	8ccc#	.	.	.	.	.	.	.
=88	=88	=88	=88	=88	=88	=88	=88	=88	=88	=88	=88	=88	=88	=88	=88
8bb-	4dd	4GG]	8bb-	2e 2cc#	2b-	8A	8A	8bb-	2ccc#	2gg	2B-	2AA_	4gg]	4g]	4dd]
8gg	.	.	8gg	.	.	8A	8A	8gg	.	.	.	.	.	.	.
8ee	4r	4r	8ee	.	.	8A	8A	8ee	.	.	.	.	4r	4r	4r
8cc#	.	.	8cc#	.	.	8A	8A	8cc#	.	.	.	.	.	.	.
=89	=89	=89	=89	=89	=89	=89	=89	=89	=89	=89	=89	=89	=89	=89	=89
8dd	[2g	[2GG	8dd	[2f 2dd	4a	8AA	8AA	8dd	4ddd	4ff	2A	2AA_	[2gg	[2g	2cc
8a	.	.	8a	.	.	8A	8A	8a	.	.	.	.	.	.	.
8ddd	.	.	8ddd	.	[4f	8A	8A	8ddd	4r	4r	.	.	.	.	.
8aa	.	.	8aa	.	.	8A	8A	8aa	.	.	.	.	.	.	.
=90	=90	=90	=90	=90	=90	=90	=90	=90	=90	=90	=90	=90	=90	=90	=90
8ff	4g]	4GG]	8ff	2f 2dd]	2f_	8A	8A	8ff	2ff	2dd	2F	2AA]	4gg]	4g]	4g
8aa	.	.	8aa	.	.	8A	8A	8aa	.	.	.	.	.	.	.
8ff	4r	4r	8ff	.	.	8A	8A	8ff	.	.	.	.	4r	4r	4r
8dd	.	.	8dd	.	.	8A	8A	8dd	.	.	.	.	.	.	.
=91	=91	=91	=91	=91	=91	=91	=91	=91	=91	=91	=91	=91	=91	=91	=91
8b	[2c	2C	8b	[2d 2G#	2f_	8AA	8AA	8b	4ddd	4ff	[2B	[2AA	[2cc	[2cc	[2cc
8g#	.	.	8g#	.	.	8A	8A	8g#	.	.	.	.	.	.	.
8ff	.	.	8ff	.	.	8A	8A	8ff	4r	4r	.	.	.	.	.
8dd	.	.	8dd	.	.	8A	8A	8dd	.	.	.	.	.	.	.
=92	=92	=92	=92	=92	=92	=92	=92	=92	=92	=92	=92	=92	=92	=92	=92
8b	4c]	4C	8b	2d 2G#]	2f]	8A	8A	8b	2gg#	2dd	2B]	2AA]	2cc]	2cc]	4cc]
8g#	.	.	8g#	.	.	8A	8A	8g#	.	.	.	.	.	.	.
8ff	4r	4r	8f	.	.	8A	8A	8ff	.	.	.	.	.	.	4r
8dd	.	.	8d	.	.	8A	8A	8dd	.	.	.	.	.	.	.
=93	=93	=93	=93	=93	=93	=93	=93	=93	=93	=93	=93	=93	=93	=93	=93
4cc#	4G	4GG	8c#	4c#	4e	4A	4A	4cc#	4aa	4cc#	4A	4AA	4dd	4g	4g
.	.	.	8A	.	.	.	.	.	.	.	.	.	.	.	.
4r	4r	4r	8a	4r	4r	4r	4r	4r	4r	4r	4r	4r	4r	4r	4r
.	.	.	8e	.	.	.	.	.	.	.	.	.	.	.	.
=94	=94	=94	=94	=94	=94	=94	=94	=94	=94	=94	=94	=94	=94	=94	=94
4ee	4G	4GG	8c#	4c# 4e	4A	4AA	4AA	4ee	4aa	4cc#	4A	4A	4dd	4g	4g
.	.	.	8A	.	.	.	.	.	.	.	.	.	.	.	.
4r	4r	4r	8a	4r	4r	4r	4r	4r	4r	4r	4r	4r	4r	4r	4r
.	.	.	8e	.	.	.	.	.	.	.	.	.	.	.	.
=95	=95	=95	=95	=95	=95	=95	=95	=95	=95	=95	=95	=95	=95	=95	=95
4ee	4G	4GG	8c#	4c# 4e	4A	4AA	4AA	4ee	4gg	4cc#	4A	4A	4dd	4g	4g
.	.	.	8A	.	.	.	.	.	.	.	.	.	.	.	.
4r	4r	4r	8g	8g	8g	8G	8G	4r	4r	4r	8G	8G	4r	4r	4r
.	.	.	8e	8e	8e	8E	8E	.	.	.	8E	8E	.	.	.
=96	=96	=96	=96	=96	=96	=96	=96	=96	=96	=96	=96	=96	=96	=96	=96
4ee	4G	4GG	8c#	8c#	8c#	8C#	8C#	4ee	4gg	4cc#	8C#	8C#	4dd	4g	4g
.	.	.	8A	8A	8A	8AA	8AA	.	.	.	8AA	8AA	.	.	.
4r	4r	4r	8g	8g	8g	8G	8G	4r	4r	4r	8G	8G	4r	4r	4r
.	.	.	8e	8e	8e	8E	8E	.	.	.	8E	8E	.	.	.
=97	=97	=97	=97	=97	=97	=97	=97	=97	=97	=97	=97	=97	=97	=97	=97
4ee	4G	4GG	8c#	8c#	8c#	8C#	8C#	4ee	4gg	4cc#	8C#	8C#	4dd	4g	4g
.	.	.	8A	8A	8A	8AA	8AA	.	.	.	8AA	8AA	.	.	.
4r	4r	4r	8gg	4r	4r	4r	4r	4r	4r	4r	4r	4r	4r	4r	4r
.	.	.	8ee	.	.	.	.	.	.	.	.	.	.	.	.
=98	=98	=98	=98	=98	=98	=98	=98	=98	=98	=98	=98	=98	=98	=98	=98
2r	2r	2r	8cc#	2r	2r	2r	2r	2r	2r	2r	2r	2r	2r	2r	2r
.	.	.	8a	.	.	.	.	.	.	.	.	.	.	.	.
.	.	.	8gg	.	.	.	.	.	.	.	.	.	.	.	.
.	.	.	8ee	.	.	.	.	.	.	.	.	.	.	.	.
=99	=99	=99	=99	=99	=99	=99	=99	=99	=99	=99	=99	=99	=99	=99	=99
2r	2r	2r	8cc#	2r	2r	2r	2r	2r	2r	2r	2r	2r	2r	2r	2r
.	.	.	8a	.	.	.	.	.	.	.	.	.	.	.	.
.	.	.	8g#	.	.	.	.	.	.	.	.	.	.	.	.
.	.	.	8a	.	.	.	.	.	.	.	.	.	.	.	.
=100	=100	=100	=100	=100	=100	=100	=100	=100	=100	=100	=100	=100	=100	=100	=100
2r	2r	2r	8g#	2r	2r	2r	2r	2r	2r	2r	2r	2r	2r	2r	2r
.	.	.	8a	.	.	.	.	.	.	.	.	.	.	.	.
.	.	.	8b-	.	.	.	.	.	.	.	.	.	.	.	.
.	.	.	8a	.	.	.	.	.	.	.	.	.	.	.	.
=101	=101	=101	=101	=101	=101	=101	=101	=101	=101	=101	=101	=101	=101	=101	=101
2r	2r	2r	8b	2r	2r	2r	2r	2r	2r	2r	2r	2r	2r	2r	2r
.	.	.	8a	.	.	.	.	.	.	.	.	.	.	.	.
.	.	.	8cc	.	.	.	.	.	.	.	.	.	.	.	.
.	.	.	8a	.	.	.	.	.	.	.	.	.	.	.	.
=102	=102	=102	=102	=102	=102	=102	=102	=102	=102	=102	=102	=102	=102	=102	=102
2r	2r	2r	8cc#	2r	2r	2r	2r	2r	2r	2r	2r	2r	2r	2r	2r
.	.	.	8a	.	.	.	.	.	.	.	.	.	.	.	.
.	.	.	8dd	.	.	.	.	.	.	.	.	.	.	.	.
.	.	.	8a	.	.	.	.	.	.	.	.	.	.	.	.
=103	=103	=103	=103	=103	=103	=103	=103	=103	=103	=103	=103	=103	=103	=103	=103
4r	2r	2r	8dd	2r	2r	2r	2r	2r	2r	2r	2r	2r	2r	2r	2r
.	.	.	8a	.	.	.	.	.	.	.	.	.	.	.	.
8ddd	.	.	8dd	.	.	.	.	.	.	.	.	.	.	.	.
8aa	.	.	8a	.	.	.	.	.	.	.	.	.	.	.	.
=104	=104	=104	=104	=104	=104	=104	=104	=104	=104	=104	=104	=104	=104	=104	=104
8ff#	2r	2r	8f#	8f#	8A	8D	8D	2r	2r	2r	2r	2r	2r	2r	2r
8aa	.	.	8a	8r	8r	8r	8r	.	.	.	.	.	.	.	.
8gg	.	.	8g	8c#	8A	8A	8A	.	.	.	.	.	.	.	.
8ee	.	.	8e	8r	8r	8r	8r	.	.	.	.	.	.	.	.
=105	=105	=105	=105	=105	=105	=105	=105	=105	=105	=105	=105	=105	=105	=105	=105
8ff#	2r	2r	8f#	8d	4A	4D	4D	2r	2r	2r	2r	2r	2r	2r	2r
8dd	.	.	8d	8r	.	.	.	.	.	.	.	.	.	.	.
8aa	.	.	8a	8f#	4r	4r	4r	.	.	.	.	.	.	.	.
8ddd	.	.	8dd	8r	.	.	.	.	.	.	.	.	.	.	.
=106	=106	=106	=106	=106	=106	=106	=106	=106	=106	=106	=106	=106	=106	=106	=106
8ccc#	2r	2r	8cc#	8e	8A	4A	4A	2r	2r	2r	2r	2r	2r	2r	2r
8aa	.	.	8a	8r	8r	.	.	.	.	.	.	.	.	.	.
8ddd	.	.	8dd	8d	8A	8F#	8F#	.	.	.	.	.	.	.	.
8ff#	.	.	8ff#	8r	8r	8D	8D	.	.	.	.	.	.	.	.
=107	=107	=107	=107	=107	=107	=107	=107	=107	=107	=107	=107	=107	=107	=107	=107
8ee	2r	2r	8ee	4c#	4A	4A	4A	2r	2r	2r	2r	2r	2r	2r	2r
8a	.	.	8a	.	.	.	.	.	.	.	.	.	.	.	.
8ddd	.	.	8dd	4r	4r	4r	4r	.	.	.	.	.	.	.	.
8aa	.	.	8a	.	.	.	.	.	.	.	.	.	.	.	.
=108	=108	=108	=108	=108	=108	=108	=108	=108	=108	=108	=108	=108	=108	=108	=108
8ff#	2r	2r	8f#	8f#	8A	8D	8D	2r	2r	2r	2r	2r	2r	2r	2r
8aa	.	.	8a	8r	8r	8r	8r	.	.	.	.	.	.	.	.
8gg	.	.	8g	8c#	8A	8A	8A	.	.	.	.	.	.	.	.
8ee	.	.	8e	8r	8r	8r	8r	.	.	.	.	.	.	.	.
=109	=109	=109	=109	=109	=109	=109	=109	=109	=109	=109	=109	=109	=109	=109	=109
8ff#	2r	2r	8f#	8d	4A	4D	4D	2r	2r	2r	2r	2r	2r	2r	2r
8dd	.	.	8d	8r	.	.	.	.	.	.	.	.	.	.	.
8ff#	.	.	8ff#	8d	4r	4r	4r	.	.	.	.	.	.	.	.
8b	.	.	8b	8r	.	.	.	.	.	.	.	.	.	.	.
=110	=110	=110	=110	=110	=110	=110	=110	=110	=110	=110	=110	=110	=110	=110	=110
8ee	2r	2r	8ee	8c#	4r	4r	4r	2r	2r	2r	2r	2r	2r	2r	2r
8a	.	.	8a	8r	.	.	.	.	.	.	.	.	.	.	.
8dd	.	.	8dd	8G#	4e	4E	4E	.	.	.	.	.	.	.	.
8g#	.	.	8g#	8B	.	.	.	.	.	.	.	.	.	.	.
=111	=111	=111	=111	=111	=111	=111	=111	=111	=111	=111	=111	=111	=111	=111	=111
4a	2r	2r	4a	4c#	4e	4AA	4AA	2r	2r	2r	4r	4r	2r	2r	2r
4r	.	.	4r	4r	4r	8d	8d	.	.	.	8d	8d	.	.	.
.	.	.	.	.	.	8A	8A	.	.	.	8A	8A	.	.	.
=112	=112	=112	=112	=112	=112	=112	=112	=112	=112	=112	=112	=112	=112	=112	=112
2r	2r	2r	2r	2r	8r	8F#	8F#	2r	2r	2r	8F#	8F#	2r	2r	2r
.	.	.	.	.	8f#	8A	8A	.	.	.	8A	8A	.	.	.
.	.	.	.	.	8e	8G	8G	.	.	.	8G	8G	.	.	.
.	.	.	.	.	8cc#	8E	8E	.	.	.	8E	8E	.	.	.
=113	=113	=113	=113	=113	=113	=113	=113	=113	=113	=113	=113	=113	=113	=113	=113
2r	2r	2r	2r	4r	4dd	8F#	8F#	2r	2r	4r	8F#	8F#	2ee	2cc	2r
.	.	.	.	.	.	8D	8D	.	.	.	8D	8D	.	.	.
.	.	.	.	8aa	8d	4r	4r	.	.	8aa	4r	4r	.	.	.
.	.	.	.	8dd	8f#	.	.	.	.	8dd	.	.	.	.	.
=114	=114	=114	=114	=114	=114	=114	=114	=114	=114	=114	=114	=114	=114	=114	=114
2r	2r	2r	2r	8cc#	4.a	8r	8r	2r	2r	8cc#	8r	8r	4dd	4g	2r
.	.	.	.	8ee	.	8c#	8c#	.	.	8ee	8c#	8c#	.	.	.
.	.	.	.	8dd	.	8F#	8F#	.	.	8dd	8F#	8F#	4cc	4cc	.
.	.	.	.	8b	8b	8G#	8G#	.	.	8b	8G#	8G#	.	.	.
=115	=115	=115	=115	=115	=115	=115	=115	=115	=115	=115	=115	=115	=115	=115	=115
4r	2g	4GG	4r	8cc#	4e	8A	8A	4r	4r	8cc#	2A	2A	4dd	4g	2g
.	.	.	.	8a	.	8G	8G	.	.	8a	.	.	.	.	.
8ddd	.	4r	8ddd	8dd	8a	8F#	8F#	8ddd	8ddd	8dd	.	.	8ee	8cc	.
8aa	.	.	8aa	8ee	8a	8C#	8C#	8aa	8aa	8ee	.	.	8ff	8dd	.
=116	=116	=116	=116	=116	=116	=116	=116	=116	=116	=116	=116	=116	=116	=116	=116
8ff#	4e	4C	8ff#	8ff#	4.a	4D	4D	8ff#	8ff#	8ff#	2A	2A	4gg	4ee	4cc
8aa	.	.	8aa	8f#	.	.	.	8aa	8aa	8dd	.	.	.	.	.
8gg	4g	4GG	8gg	8e	.	4A	4A	8gg	8gg	8a	.	.	4ff	4dd	4dd
8ee	.	.	8ee	8cc#	8g	.	.	8ee	8ee	8g	.	.	.	.	.
=117	=117	=117	=117	=117	=117	=117	=117	=117	=117	=117	=117	=117	=117	=117	=117
8ff#	4cc	4C	8ff#	4dd	4f#	4d	4d	8ff#	8ff#	4f#	4d	4d	4ee	4cc	4ee
8dd	.	.	8dd	.	.	.	.	8dd	8dd	.	.	.	.	.	.
8bb	4r	4r	8bb	8r	8r	8r	8r	8bb	8bb	8r	8r	8r	4r	4r	4r
8gg#	.	.	8gg#	8ee	8b	8d	8d	8gg#	8gg#	8ee	8d	8d	.	.	.
=118	=118	=118	=118	=118	=118	=118	=118	=118	=118	=118	=118	=118	=118	=118	=118
8aa	2r	2r	8aa	4e	4a	4c#	4c#	8aa	8aa	4aa	4c#	4c#	2r	2r	2r
8ee	.	.	8ee	.	.	.	.	8ee	8ee	.	.	.	.	.	.
8bb	.	.	8bb	8r	8r	8r	8r	8bb	8bb	8r	8r	8r	.	.	.
8gg#	.	.	8gg#	8ee	8b	8d	8d	8gg#	8gg#	8ee	8d	8d	.	.	.
=119	=119	=119	=119	=119	=119	=119	=119	=119	=119	=119	=119	=119	=119	=119	=119
8aa	4g	4GG	8aa	4e	4a	4c#	4c#	8aa	8aa	8aa	4c#	4c#	2r	2r	4dd
8ee	.	.	8ee	.	.	.	.	8ee	8ee	8r	.	.	.	.	.
8eee	4r	4r	8eee	8ee	8c#	4r	4r	8eee	8r	8ee	8C#	8C#	.	.	4r
8aa	.	.	8aa	8ff#	8d	.	.	8aa	8aa	8ff#	8D	8D	.	.	.
=120	=120	=120	=120	=120	=120	=120	=120	=120	=120	=120	=120	=120	=120	=120	=120
8gg#	2r	2r	8gg#	8b	8e	2r	2r	8gg#	8gg#	8b	8E	8E	2r	2r	2r
8ee	.	.	8ee	8g#	8ee	.	.	8ee	8ee	8ee	8e	8e	.	.	.
8aa	.	.	8aa	8ee	8cc#	.	.	8aa	8cc#	8cc#	8c#	8c#	.	.	.
8ccc#	.	.	8ccc#	8aa	8a	.	.	8ccc#	8a	8a	8A	8A	.	.	.
=121	=121	=121	=121	=121	=121	=121	=121	=121	=121	=121	=121	=121	=121	=121	=121
8bb	4dd	2r	8bb	8gg#	4e	4r	4r	8bb	4e	4e	4E	4E	2r	2r	4dd
8ee	.	.	8ee	8ee	.	.	.	8ee	.	.	.	.	.	.	.
4eee	4r	.	4eee	8e	[4cc#	8c#	8c#	4eee	[4ee	4r	[4c#	8c#	.	.	4r
.	.	.	.	8ee	.	8B	8B	.	.	.	.	8B	.	.	.
=122	=122	=122	=122	=122	=122	=122	=122	=122	=122	=122	=122	=122	=122	=122	=122
4ff#	2r	2r	4ff#	2ff#	4cc#]	8A#	8A#	4ff#	4ee]	2ff#	8c#]	8A#	2r	2r	2r
.	.	.	.	.	.	8c#	8c#	.	.	.	8d	8c#	.	.	.
[4ddd	.	.	[4ddd	.	[4b	8B	8B	[4ddd	[4dd	.	[4B	8B	.	.	.
.	.	.	.	.	.	8A	8A	.	.	.	.	8A	.	.	.
=123	=123	=123	=123	=123	=123	=123	=123	=123	=123	=123	=123	=123	=123	=123	=123
4ddd]	2r	2r	4ddd]	2ee	4b]	8G#	8G#	4ddd]	4dd]	2ee	8B]	8G#	2r	2r	2r
.	.	.	.	.	.	8E	8E	.	.	.	8e	8E	.	.	.
[4ccc#	.	.	[4ccc#	.	[4a	8A	8A	[4ccc#	[4cc#	.	[4A	8A	.	.	.
.	.	.	.	.	.	8G#	8G#	.	.	.	.	8G	.	.	.
=124	=124	=124	=124	=124	=124	=124	=124	=124	=124	=124	=124	=124	=124	=124	=124
8ccc#]	2r	2r	8ccc#]	2dd	4a]	8F#	8F#	8ccc#]	4cc#]	2dd	8A]	8F#	2r	2r	2r
8dd	.	.	8dd	.	.	8A	8A	8dd	.	.	8d	8A	.	.	.
[4bb	.	.	[4bb	.	8g#	8G#	8G#	[4bb	[4b	.	8B	8G#	.	.	.
.	.	.	.	.	8b	8E	8E	.	.	.	8G#	8E	.	.	.
=125	=125	=125	=125	=125	=125	=125	=125	=125	=125	=125	=125	=125	=125	=125	=125
8bb]	2r	2r	8bb]	2cc#	4e	8A	8A	8bb]	4b]	2cc#	8A	8A	2r	2r	2r
8cc#	.	.	8cc#	.	.	8G#	8G#	8cc#	.	.	8G#	8G#	.	.	.
[4aa	.	.	[4aa	.	8a	8F#	8F#	[4aa	4a	.	8F#	8F#	.	.	.
.	.	.	.	.	8g#	8E	8E	.	.	.	8E	8E	.	.	.
=126	=126	=126	=126	=126	=126	=126	=126	=126	=126	=126	=126	=126	=126	=126	=126
8aa]	2r	2r	8aa]	[2b	2f#	8D	8D	8aa]	2ff#	[2b	8D	8D	2r	2r	2r
8a	.	.	8a	.	.	8C#	8C#	8a	.	.	8C#	8C#	.	.	.
8a	.	.	8a	.	.	8D	8D	8a	.	.	8D	8D	.	.	.
8a	.	.	8a	.	.	8D#	8D#	8a	.	.	8D#	8D#	.	.	.
=127	=127	=127	=127	=127	=127	=127	=127	=127	=127	=127	=127	=127	=127	=127	=127
8g#	2dd	2r	8g#	8b]	4e	[2E	[2E	8g#	4ee	4b]	4E	4E	[2dd	[2dd	2dd
8b	.	.	8b	8r	.	.	.	8b	.	.	.	.	.	.	.
8ee	.	.	8ee	8c#	8c#	.	.	8ee	4r	4r	8c#	8c#	.	.	.
8dd	.	.	8dd	8B	8d	.	.	8dd	.	.	8d	8d	.	.	.
=128	=128	=128	=128	=128	=128	=128	=128	=128	=128	=128	=128	=128	=128	=128	=128
8cc#	2r	2r	8cc#	2A#	2e	2E_	2E_	8cc#	2r	2r	2e	2e	2dd_	2dd_	2r
8gg	.	.	8gg	.	.	.	.	8gg	.	.	.	.	.	.	.
8ff#	.	.	8ff#	.	.	.	.	8ff#	.	.	.	.	.	.	.
8cc#	.	.	8cc#	.	.	.	.	8cc#	.	.	.	.	.	.	.
=129	=129	=129	=129	=129	=129	=129	=129	=129	=129	=129	=129	=129	=129	=129	=129
8dd	2r	2r	8dd	4.B	4d	2E_	2E_	8dd	2r	2r	4d	4d	2dd_	2dd_	2r
8b	.	.	8b	.	.	.	.	8b	.	.	.	.	.	.	.
8dd	.	.	8dd	.	8B	.	.	8dd	.	.	8B	8B	.	.	.
8cc#	.	.	8cc#	8A	8c#	.	.	8cc#	.	.	8c#	8c#	.	.	.
=130	=130	=130	=130	=130	=130	=130	=130	=130	=130	=130	=130	=130	=130	=130	=130
8b	2r	2r	8b	2G#	2d	2E_	2E_	8b	2r	2r	2d	2d	2dd]	2dd]	2r
8ff#	.	.	8ff#	.	.	.	.	8ff#	.	.	.	.	.	.	.
8ee	.	.	8ee	.	.	.	.	8ee	.	.	.	.	.	.	.
8b	.	.	8b	.	.	.	.	8b	.	.	.	.	.	.	.
=131	=131	=131	=131	=131	=131	=131	=131	=131	=131	=131	=131	=131	=131	=131	=131
8cc#	2g	2r	8cc#	4A	4c#	2E_	2E_	8cc#	2r	2r	4c#	4c#	2gg	2g	2g
8a	.	.	8a	.	.	.	.	8a	.	.	.	.	.	.	.
8aa	.	.	8aa	4c#	4A	.	.	8aa	.	.	4A	4A	.	.	.
8ff#	.	.	8ff#	.	.	.	.	8ff#	.	.	.	.	.	.	.
=132	=132	=132	=132	=132	=132	=132	=132	=132	=132	=132	=132	=132	=132	=132	=132
8dd#	2r	2r	8dd#	2a 2f#	8a	2E_	2E_	8dd#	2r	2r	2c	4A	2r	2r	2r
8aa	.	.	8aa	.	8d#	.	.	8aa	.	.	.	.	.	.	.
8ff#	.	.	8ff#	.	8f#	.	.	8ff#	.	.	.	4F#	.	.	.
8dd#	.	.	8dd#	.	8a	.	.	8dd#	.	.	.	.	.	.	.
=133	=133	=133	=133	=133	=133	=133	=133	=133	=133	=133	=133	=133	=133	=133	=133
8dd	2r	2r	8dd	4g# 4b	4g#	4E]	4E]	8dd	2r	2r	4B	4G#	2r	2r	2r
8bb	.	.	8bb	.	.	.	.	8bb	.	.	.	.	.	.	.
8cc#	.	.	8cc#	4a	4a	4F#	4F#	8cc#	.	.	4A	4A	.	.	.
8aa	.	.	8aa	.	.	.	.	8aa	.	.	.	.	.	.	.
=134	=134	=134	=134	=134	=134	=134	=134	=134	=134	=134	=134	=134	=134	=134	=134
8b	2r	2r	8b	8f#	4d	4D	4D	8b	2r	2r	4D	4D	2r	2r	2r
8ff#	.	.	8ff#	8f#	.	.	.	8ff#	.	.	.	.	.	.	.
8dd	.	.	8B	8d	4e	4E	4E	8dd	.	.	4E	4E	.	.	.
8gg#	.	.	8g#	8B	.	.	.	8gg#	.	.	.	.	.	.	.
=135	=135	=135	=135	=135	=135	=135	=135	=135	=135	=135	=135	=135	=135	=135	=135
8aa	8g	[2GG	8a	8A	8f	8F	8F	8aa	[2cc	[2a	4F	4F	[2gg	[2g	8g
8cc	8g	.	8c	8A	8F	8F	8F	8cc	.	.	.	.	.	.	8g
8cc	8g	.	8c	8A	8F	8F	8F	8cc	.	.	4A	4A	.	.	8g
8cc	8g	.	8c	8A	8F	8F	8F	8cc	.	.	.	.	.	.	8g
=136	=136	=136	=136	=136	=136	=136	=136	=136	=136	=136	=136	=136	=136	=136	=136
8cc	4g	4GG]	8c	8A	8F	8F	8F	8cc	2cc]	2a]	4c	4c	2gg]	2g]	4g
8cc	.	.	8c	8A	8F	8F	8F	8cc	.	.	.	.	.	.	.
8cc	4r	4r	8c	8A	8F	8F	8F	8cc	.	.	4F	4F	.	.	4r
8cc	.	.	8c	8A	8F	8F	8F	8cc	.	.	.	.	.	.	.
=137	=137	=137	=137	=137	=137	=137	=137	=137	=137	=137	=137	=137	=137	=137	=137
8cc#	8dd	2r	8cc#	8G	8B-	8E	8E	8cc#	[2cc#	[2b-	4E	4E	[2gg	[2g	8dd
8cc#	8dd	.	8c#	8G	8B-	8E	8E	8cc#	.	.	.	.	.	.	8dd
8cc#	8dd	.	8c#	8G	8B-	8E	8E	8cc#	.	.	4G	4G	.	.	8dd
8cc#	8dd	.	8c#	8G	8B-	8E	8E	8cc#	.	.	.	.	.	.	8dd
=138	=138	=138	=138	=138	=138	=138	=138	=138	=138	=138	=138	=138	=138	=138	=138
8cc#	4dd	2r	8c#	8g	8B-	8E	8E	8cc#	2cc#]	2b-]	4B-	4B-	2gg]	2g]	4dd
8cc#	.	.	8c#	8g	8B-	8E	8E	8cc#	.	.	.	.	.	.	.
8cc#	4r	.	8c#	8g	8B-	8E	8E	8cc#	.	.	4c#	4c#	.	.	4r
8cc#	.	.	8c#	8g	8B-	8E	8E	8cc#	.	.	.	.	.	.	.
=139	=139	=139	=139	=139	=139	=139	=139	=139	=139	=139	=139	=139	=139	=139	=139
8dd	8c	[2C	8dd	8A 8f	8d	8D	8D	8dd	[2dd	2a	4F	4F	[2gg	[2g	8g
8dd	8c	.	8d	8A 8f	8d	8D	8D	8dd	.	.	.	.	.	.	8g
8dd	8c	.	8d	8A 8f	8d	8D	8D	8dd	.	.	4A	4A	.	.	8g
8dd	8c	.	8d	8A 8f	8d	8D	8D	8dd	.	.	.	.	.	.	8g
=140	=140	=140	=140	=140	=140	=140	=140	=140	=140	=140	=140	=140	=140	=140	=140
8dd	4c	4C]	8d	8A 8f	8d	8D	8D	8dd	2dd]	2f	4d	4d	2gg]	2g]	4g
8dd	.	.	8d	8A 8f	8d	8D	8D	8dd	.	.	.	.	.	.	.
8dd	4r	4r	8d	8A 8f	8d	8D	8D	8dd	.	.	4f	4f	.	.	4r
8dd	.	.	8d	8A 8f	8d	8D	8D	8dd	.	.	.	.	.	.	.
=141	=141	=141	=141	=141	=141	=141	=141	=141	=141	=141	=141	=141	=141	=141	=141
8ff	8c	2C	8ff	8G# 8d	8B-	8BB-	8BB-	8ff	2ff	2g#	4D	4D	[2cc	[2c	8cc
8ff	8c	.	8f	8G# 8d	8B-	8BB-	8BB-	8ff	.	.	.	.	.	.	8cc
8ff	8c	.	8f	8d 8G#	8B-	8BB-	8BB-	8ff	.	.	4F	4F	.	.	8cc
8ff	8c	.	8f	8G# 8d	8B-	8BB-	8BB-	8ff	.	.	.	.	.	.	8cc
=142	=142	=142	=142	=142	=142	=142	=142	=142	=142	=142	=142	=142	=142	=142	=142
8gg#	4c	4C	8ddd	8f	8B-	8BB-	8BB-	8gg#	2dd	2g#	4d	4d	2cc]	2c]	4cc
8gg#	.	.	8dd	8f	8B-	8BB-	8BB-	8gg#	.	.	.	.	.	.	.
8gg#	4c	4r	8dd	8f	8B-	8BB-	8BB-	8gg#	.	.	4G#	4G#	.	.	4cc
8gg#	.	.	8dd	8g#	8B-	8BB-	8BB-	8gg#	.	.	.	.	.	.	.
=143	=143	=143	=143	=143	=143	=143	=143	=143	=143	=143	=143	=143	=143	=143	=143
4aa	4G	4GG	8cc#	4a	4A	4AA	4AA	4aa	4aa	4a	4A	4A	4gg	4g	4g
.	.	.	8a	.	.	.	.	.	.	.	.	.	.	.	.
4r	4r	4r	8gg	8A	4r	4r	4r	4r	4r	4r	4r	4r	4r	4r	4r
.	.	.	8ee	8c#	.	.	.	.	.	.	.	.	.	.	.
=144	=144	=144	=144	=144	=144	=144	=144	=144	=144	=144	=144	=144	=144	=144	=144
2r	4G	4GG	8cc#	8e	4g 4A	4AA	4AA	2r	2r	2r	2r	2r	4gg	4g	4g
.	.	.	8a	8g	.	.	.	.	.	.	.	.	.	.	.
.	4r	4r	8gg	8A	4r	4r	4r	.	.	.	.	.	4r	4r	4r
.	.	.	8ee	8c#	.	.	.	.	.	.	.	.	.	.	.
=145	=145	=145	=145	=145	=145	=145	=145	=145	=145	=145	=145	=145	=145	=145	=145
2r	4G	4GG	8cc#	8e	4g 4A	4AA	4AA	2r	2r	2r	2r	2r	4gg	4g	4g
.	.	.	8a	8g	.	.	.	.	.	.	.	.	.	.	.
.	4r	4r	8bb	4r	4r	4r	4r	.	.	.	.	.	4r	4r	4r
.	.	.	8gg	.	.	.	.	.	.	.	.	.	.	.	.
=146	=146	=146	=146	=146	=146	=146	=146	=146	=146	=146	=146	=146	=146	=146	=146
4ee	2r	2r	8ee	4cc# 4g	4e	4AA	4AA	4ee	4gg	4cc#	2r	2r	2r	2r	2r
.	.	.	8cc#	.	.	.	.	.	.	.	.	.	.	.	.
4r	.	.	8bb	4r	4r	4r	4r	4r	4r	4r	.	.	.	.	.
.	.	.	8gg	.	.	.	.	.	.	.	.	.	.	.	.
=147	=147	=147	=147	=147	=147	=147	=147	=147	=147	=147	=147	=147	=147	=147	=147
4ee	2r	2r	8ee	4cc# 4g	4e	4AA	4AA	4ee	4gg	4cc#	2r	2r	2r	2r	2r
.	.	.	8cc#	.	.	.	.	.	.	.	.	.	.	.	.
4r	.	.	8ee	4r	4r	4r	4r	4r	4r	4r	.	.	.	.	.
.	.	.	8cc#	.	.	.	.	.	.	.	.	.	.	.	.
=148	=148	=148	=148	=148	=148	=148	=148	=148	=148	=148	=148	=148	=148	=148	=148
2r	2r	2r	8a	2r	2r	2r	2r	2r	2r	2r	2r	2r	2r	2r	2r
.	.	.	8g	.	.	.	.	.	.	.	.	.	.	.	.
.	.	.	8ee	.	.	.	.	.	.	.	.	.	.	.	.
.	.	.	8cc#	.	.	.	.	.	.	.	.	.	.	.	.
=149	=149	=149	=149	=149	=149	=149	=149	=149	=149	=149	=149	=149	=149	=149	=149
2r	2r	2r	8a	2r	2r	2r	2r	2r	2r	2r	2r	2r	2r	2r	2r
.	.	.	8g	.	.	.	.	.	.	.	.	.	.	.	.
.	.	.	8ee	.	.	.	.	.	.	.	.	.	.	.	.
.	.	.	8cc#	.	.	.	.	.	.	.	.	.	.	.	.
=150	=150	=150	=150	=150	=150	=150	=150	=150	=150	=150	=150	=150	=150	=150	=150
2r	2r	2r	8a	2r	2r	2r	2r	2r	2r	2r	2r	2r	2r	2r	2r
.	.	.	8g	.	.	.	.	.	.	.	.	.	.	.	.
.	.	.	8e	.	.	.	.	.	.	.	.	.	.	.	.
.	.	.	8g	.	.	.	.	.	.	.	.	.	.	.	.
=151	=151	=151	=151	=151	=151	=151	=151	=151	=151	=151	=151	=151	=151	=151	=151
4r	2r	2r	8f#	8f#	8D	4D	4D	2r	2r	2r	2r	2r	2r	2r	2r
.	.	.	8a	8A	8F#	.	.	.	.	.	.	.	.	.	.
8ddd	.	.	8dd	8f#	8D	4r	4r	.	.	.	.	.	.	.	.
8aa	.	.	8a	8A	8F#	.	.	.	.	.	.	.	.	.	.
=152	=152	=152	=152	=152	=152	=152	=152	=152	=152	=152	=152	=152	=152	=152	=152
8ff#	2r	2r	8f#	8f#	8D	4D	4D	2r	2r	2r	2r	2r	2r	2r	2r
8aa	.	.	8a	8A	8F#	.	.	.	.	.	.	.	.	.	.
8gg	.	.	8g	8c#	8E	4AA	4AA	.	.	.	.	.	.	.	.
8ee	.	.	8e	8A	8G	.	.	.	.	.	.	.	.	.	.
=153	=153	=153	=153	=153	=153	=153	=153	=153	=153	=153	=153	=153	=153	=153	=153
8ff#	2r	2r	8f#	8d	8F#	4D	4D	2r	2r	2r	2r	2r	2r	2r	2r
8dd	.	.	8d	8A	8d	.	.	.	.	.	.	.	.	.	.
8aa	.	.	8a	8f#	8D	4r	4r	.	.	.	.	.	.	.	.
8ddd	.	.	8dd	8A	8F#	.	.	.	.	.	.	.	.	.	.
=154	=154	=154	=154	=154	=154	=154	=154	=154	=154	=154	=154	=154	=154	=154	=154
8ccc#	2r	2r	8cc#	8g	8E	4A	4A	2r	2r	2r	2r	2r	2r	2r	2r
8aa	.	.	8a	8A	8c#	.	.	.	.	.	.	.	.	.	.
8ddd	.	.	8dd	8f#	8d	4D	4D	.	.	.	.	.	.	.	.
8ff#	.	.	8ff#	8d	8D	.	.	.	.	.	.	.	.	.	.
=155	=155	=155	=155	=155	=155	=155	=155	=155	=155	=155	=155	=155	=155	=155	=155
8ee	2r	2r	8ee	8c#	8A	4A	4A	2r	2r	2r	2r	2r	2r	2r	2r
8a	.	.	8a	8A	8c#	.	.	.	.	.	.	.	.	.	.
8ddd	.	.	8dd	8f#	8D	4r	4r	.	.	.	.	.	.	.	.
8aa	.	.	8a	8A	8F#	.	.	.	.	.	.	.	.	.	.
=156	=156	=156	=156	=156	=156	=156	=156	=156	=156	=156	=156	=156	=156	=156	=156
8ff#	2r	2r	8f#	8f#	8D	8D	8D	2r	2r	2r	2r	2r	2r	2r	2r
8aa	.	.	8a	8A	8F#	8r	8r	.	.	.	.	.	.	.	.
8gg	.	.	8g	8c#	8E	8A	8A	.	.	.	.	.	.	.	.
8ee	.	.	8e	8A	8G	8r	8r	.	.	.	.	.	.	.	.
=157	=157	=157	=157	=157	=157	=157	=157	=157	=157	=157	=157	=157	=157	=157	=157
8ff#	2r	2r	8f#	8d	8F#	4D	4D	2r	2r	2r	2r	2r	2r	2r	2r
8dd	.	.	8d	8f#	8f#	.	.	.	.	.	.	.	.	.	.
8ff#	.	.	8ff#	8d	8D	4r	4r	.	.	.	.	.	.	.	.
8b	.	.	8b	8f#	8d	.	.	.	.	.	.	.	.	.	.
=158	=158	=158	=158	=158	=158	=158	=158	=158	=158	=158	=158	=158	=158	=158	=158
8ee	2r	2r	8ee	8c#	8E	4r	4r	2r	2r	2r	2r	2r	2r	2r	2r
8a	.	.	8a	8e	8e	.	.	.	.	.	.	.	.	.	.
8dd	.	.	8dd	8B	8E	4E	4E	.	.	.	.	.	.	.	.
8g#	.	.	8g#	8d	8e	.	.	.	.	.	.	.	.	.	.
=159	=159	=159	=159	=159	=159	=159	=159	=159	=159	=159	=159	=159	=159	=159	=159
4a	2r	2r	4a	8c#	8A	4AA	4AA	2r	2r	2r	2r	2r	2r	2r	2r
.	.	.	.	8a	8a	.	.	.	.	.	.	.	.	.	.
4r	.	.	8aa	8r	8r	8r	4r	.	.	.	.	.	.	.	.
.	.	.	8a	8e	8c#	8c#	.	.	.	.	.	.	.	.	.
=160	=160	=160	=160	=160	=160	=160	=160	=160	=160	=160	=160	=160	=160	=160	=160
2r	2r	2r	8b-	8f	8d	8d	2r	2r	2r	2r	2r	2r	2r	2r	2r
.	.	.	8a	8e	8c#	8c#	.	.	.	.	.	.	.	.	.
.	.	.	8aa	8r	8r	8r	.	.	.	.	.	.	.	.	.
.	.	.	8cc#	8g	8e	8e	.	.	.	.	.	.	.	.	.
=161	=161	=161	=161	=161	=161	=161	=161	=161	=161	=161	=161	=161	=161	=161	=161
2r	2r	2r	8dd	8a	8f	8f	2r	2r	2r	2r	2r	2r	2r	2r	2r
.	.	.	8cc#	8g	8e	8e	.	.	.	.	.	.	.	.	.
.	.	.	8aa	8r	8r	8r	.	.	.	.	.	.	.	.	.
.	.	.	8dd	8a	8f	8f	.	.	.	.	.	.	.	.	.
=162	=162	=162	=162	=162	=162	=162	=162	=162	=162	=162	=162	=162	=162	=162	=162
2r	2r	2r	8ee	8b-	8g	8g	4.r	2r	2r	2r	2r	2r	2r	2r	2r
.	.	.	8dd	8a	8f	8f	.	.	.	.	.	.	.	.	.
.	.	.	8ddd	8r	8r	8r	.	.	.	.	.	.	.	.	.
.	.	.	8aa	8dd	8d	8F#	8F#	.	.	.	.	.	.	.	.
=163	=163	=163	=163	=163	=163	=163	=163	=163	=163	=163	=163	=163	=163	=163	=163
2r	2r	2r	8bb-	4dd	4d	4G	4G	2r	2r	2r	2r	2r	2r	2r	2r
.	.	.	8gg	.	.	.	.	.	.	.	.	.	.	.	.
.	.	.	8ddd	8r	8r	8r	8r	.	.	.	.	.	.	.	.
.	.	.	8ff#	8dd	8d	8A	8A	.	.	.	.	.	.	.	.
=164	=164	=164	=164	=164	=164	=164	=164	=164	=164	=164	=164	=164	=164	=164	=164
2r	2r	2r	8gg	4dd	4d	4B-	4B-	2r	2r	2r	2r	2r	2r	2r	2r
.	.	.	8dd	.	.	.	.	.	.	.	.	.	.	.	.
.	.	.	8ddd	8r	8r	8r	8r	.	.	.	.	.	.	.	.
.	.	.	8aa	8dd	8d	8F#	8F#	.	.	.	.	.	.	.	.
=165	=165	=165	=165	=165	=165	=165	=165	=165	=165	=165	=165	=165	=165	=165	=165
2r	2r	2r	8bb-	4dd	4d	4G	4G	2r	2r	2r	2r	2r	2r	2r	2r
.	.	.	8gg	.	.	.	.	.	.	.	.	.	.	.	.
.	.	.	8bb-	4r	8r	8r	8r	.	.	.	.	.	.	.	.
.	.	.	8ff#	.	8c	8A	8A	.	.	.	.	.	.	.	.
=166	=166	=166	=166	=166	=166	=166	=166	=166	=166	=166	=166	=166	=166	=166	=166
2r	2r	2r	8gg	4.d	8d	8B-	8B-	2r	2r	2r	2r	2r	2r	2r	2r
.	.	.	8ff	.	8c	8A	8A	.	.	.	.	.	.	.	.
.	.	.	8ee	.	8B-	8G	8G	.	.	.	.	.	.	.	.
.	.	.	8dd	16f	8G#	8G#	8G#	.	.	.	.	.	.	.	.
.	.	.	.	16d	.	.	.	.	.	.	.	.	.	.	.
=167	=167	=167	=167	=167	=167	=167	=167	=167	=167	=167	=167	=167	=167	=167	=167
2r	2r	2r	8aa	8c#	8A	4A	4A	2r	2r	2r	2r	2r	2r	2r	2r
.	.	.	8r	8r	8c#	.	.	.	.	.	.	.	.	.	.
.	.	.	8ff	4g#	8d	4r	4r	.	.	.	.	.	.	.	.
.	.	.	8dd	.	8f	.	.	.	.	.	.	.	.	.	.
=168	=168	=168	=168	=168	=168	=168	=168	=168	=168	=168	=168	=168	=168	=168	=168
2r	2r	2r	8cc#	8a	8e	4A	4A	2r	2r	2r	2r	2r	2r	2r	2r
.	.	.	8a	8r	8c#	.	.	.	.	.	.	.	.	.	.
.	.	.	8ff	4g#	8d	4r	4r	.	.	.	.	.	.	.	.
.	.	.	8dd	.	8f	.	.	.	.	.	.	.	.	.	.
=169	=169	=169	=169	=169	=169	=169	=169	=169	=169	=169	=169	=169	=169	=169	=169
2r	2r	2r	8cc#	8a	8e	4A	4A	2r	2r	2r	2r	2r	2r	2r	2r
.	.	.	8a	4.r	8c#	.	.	.	.	.	.	.	.	.	.
.	.	.	8gg	.	4r	4r	4r	.	.	.	.	.	.	.	.
.	.	.	8ee	.	.	.	.	.	.	.	.	.	.	.	.
=170	=170	=170	=170	=170	=170	=170	=170	=170	=170	=170	=170	=170	=170	=170	=170
2r	2r	2r	8cc#	2r	2r	2r	2r	2r	2r	2r	2r	2r	2r	2r	2r
.	.	.	8a	.	.	.	.	.	.	.	.	.	.	.	.
.	.	.	8gg	.	.	.	.	.	.	.	.	.	.	.	.
.	.	.	8ee	.	.	.	.	.	.	.	.	.	.	.	.
=171	=171	=171	=171	=171	=171	=171	=171	=171	=171	=171	=171	=171	=171	=171	=171
2r	2r	2r	8cc#	4r	4r	4r	4r	2r	2r	2r	2r	2r	2r	2r	2r
.	.	.	8a	.	.	.	.	.	.	.	.	.	.	.	.
.	.	.	8g	8g	8g	8G	8G	.	.	.	.	.	.	.	.
.	.	.	8e	8e	8e	8E	8E	.	.	.	.	.	.	.	.
=172	=172	=172	=172	=172	=172	=172	=172	=172	=172	=172	=172	=172	=172	=172	=172
2r	2r	2r	8c#	8c#	8c#	8C#	8C#	2r	2r	2r	2r	2r	2r	2r	2r
.	.	.	8A	8A	8A	8AA	8AA	.	.	.	.	.	.	.	.
.	.	.	8g	8g	8g	8G	8G	.	.	.	.	.	.	.	.
.	.	.	8e	8e	8e	8E	8E	.	.	.	.	.	.	.	.
=173	=173	=173	=173	=173	=173	=173	=173	=173	=173	=173	=173	=173	=173	=173	=173
2r	2r	2r	8c#	8c#	8c#	8C#	8C#	2r	2r	2r	2r	2r	2r	2r	2r
.	.	.	8A	8A	8A	8AA	8AA	.	.	.	.	.	.	.	.
.	.	.	8gg	4r	4r	4r	4r	.	.	.	.	.	.	.	.
.	.	.	8ee	.	.	.	.	.	.	.	.	.	.	.	.
=174	=174	=174	=174	=174	=174	=174	=174	=174	=174	=174	=174	=174	=174	=174	=174
2r	2r	2r	8cc#	2r	2r	2r	2r	2r	2r	2r	2r	2r	2r	2r	2r
.	.	.	8a	.	.	.	.	.	.	.	.	.	.	.	.
.	.	.	8gg	.	.	.	.	.	.	.	.	.	.	.	.
.	.	.	8ee	.	.	.	.	.	.	.	.	.	.	.	.
=175	=175	=175	=175	=175	=175	=175	=175	=175	=175	=175	=175	=175	=175	=175	=175
2r	2r	2r	8cc#	2r	2r	2r	2r	2r	2r	2r	2r	2r	2r	2r	2r
.	.	.	8a	.	.	.	.	.	.	.	.	.	.	.	.
.	.	.	8g#	.	.	.	.	.	.	.	.	.	.	.	.
.	.	.	8a	.	.	.	.	.	.	.	.	.	.	.	.
=176	=176	=176	=176	=176	=176	=176	=176	=176	=176	=176	=176	=176	=176	=176	=176
2r	2r	2r	8g#	2r	2r	2r	2r	2r	2r	2r	2r	2r	2r	2r	2r
.	.	.	8a	.	.	.	.	.	.	.	.	.	.	.	.
.	.	.	8b-	.	.	.	.	.	.	.	.	.	.	.	.
.	.	.	8a	.	.	.	.	.	.	.	.	.	.	.	.
=177	=177	=177	=177	=177	=177	=177	=177	=177	=177	=177	=177	=177	=177	=177	=177
2r	2r	2r	8b	2r	2r	2r	2r	2r	2r	2r	2r	2r	2r	2r	2r
.	.	.	8a	.	.	.	.	.	.	.	.	.	.	.	.
.	.	.	8cc	.	.	.	.	.	.	.	.	.	.	.	.
.	.	.	8a	.	.	.	.	.	.	.	.	.	.	.	.
=178	=178	=178	=178	=178	=178	=178	=178	=178	=178	=178	=178	=178	=178	=178	=178
2r	2r	2r	8cc#	2r	2r	2r	2r	2r	2r	2r	4r	2r	2r	2r	2r
.	.	.	8a	.	.	.	.	.	.	.	.	.	.	.	.
.	.	.	8dd	.	.	.	.	.	.	.	8d	.	.	.	.
.	.	.	8a	.	.	.	.	.	.	.	8A	.	.	.	.
=179	=179	=179	=179	=179	=179	=179	=179	=179	=179	=179	=179	=179	=179	=179	=179
4r	2r	2r	8dd	2r	2r	2r	2r	2r	2r	2r	8d	2r	2r	2r	2r
.	.	.	8a	.	.	.	.	.	.	.	8A	.	.	.	.
8ddd	.	.	8dd	.	.	.	.	.	.	.	8d	.	.	.	.
8aa	.	.	8a	.	.	.	.	.	.	.	8A	.	.	.	.
=180	=180	=180	=180	=180	=180	=180	=180	=180	=180	=180	=180	=180	=180	=180	=180
8ff#	4c	4C	8f#	8f#	8D	4D	4D	2r	2r	2r	8F#	2r	2r	2r	4g
8aa	.	.	8a	8A	8F#	.	.	.	.	.	8A	.	.	.	.
8gg	4g	4GG	8g	8c#	8E	4A	4A	.	.	.	8G	.	.	.	4g
8ee	.	.	8e	8A	8G	.	.	.	.	.	8E	.	.	.	.
=181	=181	=181	=181	=181	=181	=181	=181	=181	=181	=181	=181	=181	=181	=181	=181
8ff#	4c	4C	8f#	8d	8F#	4d	4d	2r	2r	2r	8F#	2r	2r	2r	4g
8dd	.	.	8d	8A	8A	.	.	.	.	.	8D	.	.	.	.
8aa	4r	4r	8a	8f#	8D	4r	4r	.	.	.	8A	.	.	.	4r
8ddd	.	.	8dd	8A	8F#	.	.	.	.	.	8d	.	.	.	.
=182	=182	=182	=182	=182	=182	=182	=182	=182	=182	=182	=182	=182	=182	=182	=182
8ccc#	4G	4GG	8cc#	8g	8E	4A	4A	2r	2r	2r	8c#	2r	2r	2r	4g
8aa	.	.	8a	8A	8c#	.	.	.	.	.	8A	.	.	.	.
8ddd	4c	4C	8dd	8f#	8d	4D	4D	.	.	.	8d	.	.	.	4g
8ff#	.	.	8ff#	8d	8D	.	.	.	.	.	8f#	.	.	.	.
=183	=183	=183	=183	=183	=183	=183	=183	=183	=183	=183	=183	=183	=183	=183	=183
8ee	4G	4GG	8ee	8c#	8A	4A	4A	2r	2r	2r	8e	2r	2r	2r	4g
8a	.	.	8a	8A	8c#	.	.	.	.	.	8A	.	.	.	.
8eee	4r	4r	8ee	4r	4r	4r	4r	.	.	.	8e	.	.	.	4r
8bb	.	.	8b	.	.	.	.	.	.	.	8B	.	.	.	.
=184	=184	=184	=184	=184	=184	=184	=184	=184	=184	=184	=184	=184	=184	=184	=184
8gg	2r	2r	8g	8g	8E	4E	4E	2r	2r	2r	8G	2r	2r	2r	2r
8bb	.	.	8b	8B	8G	.	.	.	.	.	8B	.	.	.	.
8aa	.	.	8a	8d#	8F#	4BB	4BB	.	.	.	8A	.	.	.	.
8ff#	.	.	8f#	8B	8A	.	.	.	.	.	8F#	.	.	.	.
=185	=185	=185	=185	=185	=185	=185	=185	=185	=185	=185	=185	=185	=185	=185	=185
8gg	2r	2r	8g	8e	4G	4E	4E	2r	2r	2r	8G	2r	2r	2r	2r
8ee	.	.	8e	8B	.	.	.	.	.	.	8E	.	.	.	.
8gg	.	.	8gg	8e	8r	8r	8r	.	.	.	8G	.	.	.	.
8bb	.	.	8bb	8g	8c#	8C#	8C#	.	.	.	8B	.	.	.	.
=186	=186	=186	=186	=186	=186	=186	=186	=186	=186	=186	=186	=186	=186	=186	=186
8aa	4cc	4C	8aa	8f#	8d	4D	4D	2r	2r	2r	8A	2r	2r	2r	4ee
8dd	.	.	8dd	8a	8r	.	.	.	.	.	8d	.	.	.	.
8ee	4g	4GG	8ee	8g	8A	4AA	4AA	.	.	.	8e	.	.	.	4dd
8cc#	.	.	8cc#	8e	8r	.	.	.	.	.	8c#	.	.	.	.
=187	=187	=187	=187	=187	=187	=187	=187	=187	=187	=187	=187	=187	=187	=187	=187
4dd	4e	4C	8dd	8f#	8D	4DD	4DD	2r	4r	4r	8d	2r	2r	2r	4cc
.	.	.	8r	8r	8d	.	.	.	.	.	4.r	.	.	.	.
4r	4r	4r	8ddd	8bb	8d	4r	4r	.	8ddd	8bb	.	.	.	.	4r
.	.	.	8bb	8gg	8d	.	.	.	8bb	8gg	.	.	.	.	.
=188	=188	=188	=188	=188	=188	=188	=188	=188	=188	=188	=188	=188	=188	=188	=188
2r	2r	2r	8aa	8ff#	8d	4d	4d	2r	8aa	8ff#	2r	2r	2r	2r	2r
.	.	.	8dd	8dd	8d	.	.	.	8r	8r	.	.	.	.	.
.	.	.	8ddd	8bb	8d	4r	4r	.	8ddd	8bb	.	.	.	.	.
.	.	.	8bb	8gg	8d	.	.	.	8bb	8gg	.	.	.	.	.
=189	=189	=189	=189	=189	=189	=189	=189	=189	=189	=189	=189	=189	=189	=189	=189
4r	4r	4r	8aa	8ff#	4d	4d	4d	4r	8aa	8ff#	4r	4r	4r	4r	4r
.	.	.	8dd	8dd	.	.	.	.	8r	8r	.	.	.	.	.
16ddd	8c	8C	16ddd	8dd	8b	8B	8B	16ddd	8dd	16dd	8B	8B	8cc	8c	8cc
16ccc#	.	.	16ccc#	.	.	.	.	16ccc#	.	16cc#	.	.	.	.	.
16ddd	8c	8C	16ddd	8b	8g	8G	8G	16ddd	8bb	16dd	8G	8G	8cc	8c	8cc
16ccc#	.	.	16ccc#	.	.	.	.	16ccc#	.	16cc#	.	.	.	.	.
=190	=190	=190	=190	=190	=190	=190	=190	=190	=190	=190	=190	=190	=190	=190	=190
8ddd	4c	4C	8ddd	8a	8f#	8F#	8F#	8ddd	8aa	8dd	8F#	8F#	4cc	4c	4cc
8r	.	.	8r	8f#	8d	8D	8D	8r	8ff#	8r	8D	8D	.	.	.
16ddd	8c	8C	16ddd	8dd	8b	8B	8B	16ddd	8dd	16dd	8B	8B	8cc	8c	8cc
16ccc#	.	.	16ccc#	.	.	.	.	16ccc#	.	16cc#	.	.	.	.	.
16ddd	8c	8C	16ddd	8b	8g	8G	8G	16ddd	8bb	16dd	8G	8G	8cc	8c	8cc
16ccc#	.	.	16ccc#	.	.	.	.	16ccc#	.	16cc#	.	.	.	.	.
=191	=191	=191	=191	=191	=191	=191	=191	=191	=191	=191	=191	=191	=191	=191	=191
8ddd	4c	4C	8ddd	4a	4f#	4F#	4F#	8ddd	4aa	4dd	4F#	4F#	4cc	4c	4cc
24aa	.	.	24aa	.	.	.	.	24aa	.	.	.	.	.	.	.
24bb	.	.	24bb	.	.	.	.	24bb	.	.	.	.	.	.	.
24ccc#	.	.	24ccc#	.	.	.	.	24ccc#	.	.	.	.	.	.	.
8ddd	4c	4C	8ddd	4aa 4dd 4f#	4a 4d	4F#	4F#	8ddd	4aa	4dd	4F#	4F#	4cc	4c	4cc
24aa	.	.	24aa	.	.	.	.	24aa	.	.	.	.	.	.	.
24bb	.	.	24bb	.	.	.	.	24bb	.	.	.	.	.	.	.
24ccc#	.	.	24ccc#	.	.	.	.	24ccc#	.	.	.	.	.	.	.
=192	=192	=192	=192	=192	=192	=192	=192	=192	=192	=192	=192	=192	=192	=192	=192
8ddd	4c	4C	8ddd	4aa 4dd 4f#	4a 4d	4F#	4F#	8ddd	4aa	4dd	4F#	4F#	4cc	4c	4cc
8aa	.	.	8aa	.	.	.	.	8aa	.	.	.	.	.	.	.
8ff#	4r	4r	8ff#	4r	4r	4r	4r	8ff#	4r	4r	4r	4r	4r	4r	4r
8dd	.	.	8dd	.	.	.	.	8dd	.	.	.	.	.	.	.
=193	=193	=193	=193	=193	=193	=193	=193	=193	=193	=193	=193	=193	=193	=193	=193
8.bb	4c	4C	8.bb	4G 4b 4d	4b 4d	4G	4G	8.bb	4bb	4dd	4G	4G	4cc	4c	4cc
32gg	.	.	32gg	.	.	.	.	32gg	.	.	.	.	.	.	.
32aa	.	.	32aa	.	.	.	.	32aa	.	.	.	.	.	.	.
8.bb	4c	4C	8.bb	4bb 4dd	4b 4d	4G	4G	8.bb	4bb	4dd	4G	4G	4cc	4c	4cc
32gg	.	.	32gg	.	.	.	.	32gg	.	.	.	.	.	.	.
32aa	.	.	32aa	.	.	.	.	32aa	.	.	.	.	.	.	.
=194	=194	=194	=194	=194	=194	=194	=194	=194	=194	=194	=194	=194	=194	=194	=194
8bb	4c	4C	8bb	4bb 4dd	4b 4d	4G	4G	8bb	4bb	4dd	4G	4G	4cc	4c	4cc
8ddd	.	.	8ddd	.	.	.	.	8ddd	.	.	.	.	.	.	.
8bb	4r	4r	8bb	4r	4r	4r	4r	8bb	4r	4r	4r	4r	4r	4r	4r
8gg	.	.	8gg	.	.	.	.	8gg	.	.	.	.	.	.	.
=195	=195	=195	=195	=195	=195	=195	=195	=195	=195	=195	=195	=195	=195	=195	=195
8ff#	2cc	4GG	8ff#	8dd	4a	4A	4A	8ff#	2ff#	2dd	4A	4A	2ee	2cc	2ee
8aa	.	.	8aa	8ff#	.	.	.	8aa	.	.	.	.	.	.	.
8ff#	.	4r	8ff#	8dd	4r	4r	4r	8ff#	.	.	4r	4r	.	.	.
8dd	.	.	8dd	8a	.	.	.	8dd	.	.	.	.	.	.	.
=196	=196	=196	=196	=196	=196	=196	=196	=196	=196	=196	=196	=196	=196	=196	=196
8a	2g	4GG	8a	8cc#	4A	4AA	4AA	8a	2ee	2cc#	4AA	4AA	2dd	2g	2dd
8gg	.	.	8gg	8ee	.	.	.	8gg	.	.	.	.	.	.	.
8ee	.	4r	8ee	8cc#	4r	4r	4r	8ee	.	.	4r	4r	.	.	.
8cc#	.	.	8cc#	8a	.	.	.	8cc#	.	.	.	.	.	.	.
=197	=197	=197	=197	=197	=197	=197	=197	=197	=197	=197	=197	=197	=197	=197	=197
8dd	[2c	[2C	8dd	8f#	8B	8BB	8BB	8dd	8dd	8dd	8BB	8BB	8cc	8c	[2cc
8ddd	.	.	8g#	8d	8B	8BB	8BB	8ddd	8gg#	8dd	8BB	8BB	8cc	8c	.
8ddd	.	.	8g#	8d	8B	8BB	8BB	8ddd	8gg#	8dd	8BB	8BB	8cc	8c	.
8ddd	.	.	8g#	8d	8B	8BB	8BB	8ddd	8gg#	8dd	8BB	8BB	8cc	8c	.
=198	=198	=198	=198	=198	=198	=198	=198	=198	=198	=198	=198	=198	=198	=198	=198
8ddd	8c]	8C]	8g#	8d	8B	8BB	8BB	8ddd	8gg#	8dd	8BB	8BB	8cc	8c	8cc]
8ddd	8c	8C	8g#	8d	8B	8BB	8BB	8ddd	8gg#	8dd	8BB	8BB	8cc	8c	8cc
8ddd	8c	8C	8g#	8d	8B	8BB	8BB	8ddd	8gg#	8dd	8BB	8BB	8cc	8c	8cc
8ddd	8c	8C	8g#	8d	8B	8BB	8BB	8ddd	8gg#	8dd	8BB	8BB	8cc	8c	8cc
=199	=199	=199	=199	=199	=199	=199	=199	=199	=199	=199	=199	=199	=199	=199	=199
8eee	[2G	[2GG	8ee	8e 8A	8c#	8C#	8C#	8eee	8aa	8a	8C#	8C#	8dd	8g	[2g
8ccc#	.	.	8g	8e 8A	8c#	8C#	8C#	8ccc#	8gg	8ee	8C#	8C#	8dd	8g	.
8aa	.	.	8g	8e 8A	8c#	8C#	8C#	8aa	8gg	8ee	8C#	8C#	8dd	8g	.
8gg	.	.	8g	8e 8A	8c#	8C#	8C#	8gg	8gg	8ee	8C#	8C#	8dd	8g	.
=200	=200	=200	=200	=200	=200	=200	=200	=200	=200	=200	=200	=200	=200	=200	=200
8ee	8G]	8GG]	8g	8e 8A	8c#	8C#	8C#	8ee	8gg	8ee	8C#	8C#	8dd	8g	8g]
8cc#	8G	8GG	8g	8A 8e	8c#	8C#	8C#	8cc#	8gg	8ee	8C#	8C#	8dd	8g	8g
8a	8G	8GG	8g	8e 8A	8c#	8C#	8C#	8a	8gg	8ee	8C#	8C#	8dd	8g	8g
8a	8G	8GG	8g	8A 8e	8c#	8C#	8C#	8a	8gg	8ee	8C#	8C#	8dd	8g	8g
=201	=201	=201	=201	=201	=201	=201	=201	=201	=201	=201	=201	=201	=201	=201	=201
4a	4G	4GG	4g	4A 4e	4c#	4C#	4C#	4a	4gg	4ee	4C#	4C#	4dd	4g	4g
8ddd	4r	4r	4r	4r	4r	4r	4r	4r	4r	4r	8F#	4r	4r	4r	4r
8aa	.	.	.	.	.	.	.	.	.	.	8A	.	.	.	.
=202	=202	=202	=202	=202	=202	=202	=202	=202	=202	=202	=202	=202	=202	=202	=202
8ff#	2r	4C	2r	2r	2r	2r	2r	2r	2r	2r	8d	2r	4cc	4e	2r
8aa	.	.	.	.	.	.	.	.	.	.	8f#	.	.	.	.
8gg	.	4GG	.	.	.	.	.	.	.	.	8e	.	4dd	4g	.
8ee	.	.	.	.	.	.	.	.	.	.	8c#	.	.	.	.
=203	=203	=203	=203	=203	=203	=203	=203	=203	=203	=203	=203	=203	=203	=203	=203
8ff#	2r	4C	2r	2r	2r	2r	2r	2r	4r	4r	4d	2r	4ee	4cc	2r
8dd	.	.	.	.	.	.	.	.	.	.	.	.	.	.	.
4r	.	4r	.	.	.	.	.	.	8dd	8f#	4r	.	4r	4r	.
.	.	.	.	.	.	.	.	.	8ee	8a	.	.	.	.	.
=204	=204	=204	=204	=204	=204	=204	=204	=204	=204	=204	=204	=204	=204	=204	=204
2r	4c	2r	2r	2r	2r	2r	2r	2r	8ff#	8dd	2r	2r	2r	2r	4c
.	.	.	.	.	.	.	.	.	8aa	8ff#	.	.	.	.	.
.	4c	.	.	.	.	.	.	.	8gg	8ee	.	.	.	.	4c
.	.	.	.	.	.	.	.	.	8ff#	8dd	.	.	.	.	.
=205	=205	=205	=205	=205	=205	=205	=205	=205	=205	=205	=205	=205	=205	=205	=205
4r	4G	2r	2r	2r	2r	2r	2r	2r	8ee	8cc#	4r	2r	2r	2r	4g
.	.	.	.	.	.	.	.	.	8cc#	8a	.	.	.	.	.
8ddd	4r	.	.	.	.	.	.	.	4r	4r	8F#	.	.	.	4r
8aa	.	.	.	.	.	.	.	.	.	.	8A	.	.	.	.
=206	=206	=206	=206	=206	=206	=206	=206	=206	=206	=206	=206	=206	=206	=206	=206
8ff#	2r	4C	2r	2r	2r	2r	2r	2r	2r	2r	8d	2r	4cc	4e	2r
8aa	.	.	.	.	.	.	.	.	.	.	8f#	.	.	.	.
8gg	.	4GG	.	.	.	.	.	.	.	.	8e	.	4dd	4g	.
8ee	.	.	.	.	.	.	.	.	.	.	8c#	.	.	.	.
=207	=207	=207	=207	=207	=207	=207	=207	=207	=207	=207	=207	=207	=207	=207	=207
8ff#	2r	4C	2r	2r	2r	2r	2r	2r	4r	4r	4d	2r	4ee	4cc	2r
8dd	.	.	.	.	.	.	.	.	.	.	.	.	.	.	.
4r	.	4r	.	.	.	.	.	.	8dd	8f#	4r	.	4r	4r	.
.	.	.	.	.	.	.	.	.	8ee	8a	.	.	.	.	.
=208	=208	=208	=208	=208	=208	=208	=208	=208	=208	=208	=208	=208	=208	=208	=208
2r	4c	2r	2r	2r	2r	2r	2r	2r	8ff#	8dd	2r	2r	2r	2r	4c
.	.	.	.	.	.	.	.	.	8aa	8ff#	.	.	.	.	.
.	4c	.	.	.	.	.	.	.	8gg	8ee	.	.	.	.	4c
.	.	.	.	.	.	.	.	.	8ff#	8dd	.	.	.	.	.
=209	=209	=209	=209	=209	=209	=209	=209	=209	=209	=209	=209	=209	=209	=209	=209
2r	4G	2r	2r	2r	8A	8A	8A	2r	4ee	4cc#	2r	2r	[2g	[2G	4g
.	.	.	.	.	8A	8AA	8AA	.	.	.	.	.	.	.	.
.	4r	.	.	.	8A	8AA	8AA	.	4r	4r	.	.	.	.	4r
.	.	.	.	.	8A	8AA	8AA	.	.	.	.	.	.	.	.
=210	=210	=210	=210	=210	=210	=210	=210	=210	=210	=210	=210	=210	=210	=210	=210
2r	2r	2r	2r	2r	8A	8AA	4AA	2r	2r	2r	2r	2r	2g]	2G]	2r
.	.	.	.	.	8A	8AA	.	.	.	.	.	.	.	.	.
.	.	.	.	.	8A	8AA	4r	.	.	.	.	.	.	.	.
.	.	.	.	.	8A	8AA	.	.	.	.	.	.	.	.	.
=211	=211	=211	=211	=211	=211	=211	=211	=211	=211	=211	=211	=211	=211	=211	=211
2gg	[2G	2GG	2gg 2a	2cc# 2e	[2A	8AA	8AA	2ee	2gg	2cc#	8AA	8AA	[2dd	[2g	[2g
.	.	.	.	.	.	8A	8A	.	.	.	8A	8A	.	.	.
.	.	.	.	.	.	8AA	8AA	.	.	.	8AA	8AA	.	.	.
.	.	.	.	.	.	8AA	8AA	.	.	.	8AA	8AA	.	.	.
=212	=212	=212	=212	=212	=212	=212	=212	=212	=212	=212	=212	=212	=212	=212	=212
2r	4G]	2r	16g	16e	8A]	8AA	8AA	2r	2r	2r	8AA	8AA	4dd]	4g]	4g]
.	.	.	16a	16f#	.	.	.	.	.	.	.	.	.	.	.
.	.	.	16g	16e	8a	8AA	8AA	.	.	.	8AA	8AA	.	.	.
.	.	.	16f#	16d	.	.	.	.	.	.	.	.	.	.	.
.	4r	.	8e	8c#	8A	8AA	8AA	.	.	.	8AA	8AA	4r	4r	4r
.	.	.	8r	8r	8A	8AA	8AA	.	.	.	8AA	8AA	.	.	.
=213	=213	=213	=213	=213	=213	=213	=213	=213	=213	=213	=213	=213	=213	=213	=213
2aa	[2c	2GG	2aa 2a	2ff# 2a	[2A	8AA	8AA	2dd	2aa	2ff#	8AA	8AA	[2ee	[2cc	[2g
.	.	.	.	.	.	8A	8A	.	.	.	8A	8A	.	.	.
.	.	.	.	.	.	8AA	8AA	.	.	.	8AA	8AA	.	.	.
.	.	.	.	.	.	8AA	8AA	.	.	.	8AA	8AA	.	.	.
=214	=214	=214	=214	=214	=214	=214	=214	=214	=214	=214	=214	=214	=214	=214	=214
2r	4c]	2r	16a	16f#	8A]	8AA	8AA	2r	2r	2r	8AA	8AA	4ee]	4cc]	4g]
.	.	.	16b	16g	.	.	.	.	.	.	.	.	.	.	.
.	.	.	16a	16f#	8a	8AA	8AA	.	.	.	8AA	8AA	.	.	.
.	.	.	16g	16e	.	.	.	.	.	.	.	.	.	.	.
.	4r	.	8f#	8d	8A	8AA	8AA	.	.	.	8AA	8AA	4r	4r	4r
.	.	.	8r	8r	8A	8AA	8AA	.	.	.	8AA	8AA	.	.	.
=215	=215	=215	=215	=215	=215	=215	=215	=215	=215	=215	=215	=215	=215	=215	=215
2ddd	[2c	2GG	2ddd 2dd	2gg# 2b	[2A	8AA	8AA	2bb	2gg#	2b	8AA	8AA	[2cc	[2cc	[2cc
.	.	.	.	.	.	8A	8A	.	.	.	8A	8A	.	.	.
.	.	.	.	.	.	8AA	8AA	.	.	.	8AA	8AA	.	.	.
.	.	.	.	.	.	8AA	8AA	.	.	.	8AA	8AA	.	.	.
=216	=216	=216	=216	=216	=216	=216	=216	=216	=216	=216	=216	=216	=216	=216	=216
2r	4c]	2r	16g#	16B	8A]	8AA	8AA	2r	2r	2r	8AA	8AA	4cc]	4cc]	4cc]
.	.	.	16a	16c#	.	.	.	.	.	.	.	.	.	.	.
.	.	.	16b	16d	8a	8AA	8AA	.	.	.	8AA	8AA	.	.	.
.	.	.	16a	16c#	.	.	.	.	.	.	.	.	.	.	.
.	4r	.	8g#	8B	8A	8AA	8AA	.	.	.	8AA	8AA	4r	4r	4r
.	.	.	8r	8r	8A	8AA	8AA	.	.	.	8AA	8AA	.	.	.
=217	=217	=217	=217	=217	=217	=217	=217	=217	=217	=217	=217	=217	=217	=217	=217
2eee	[2g	2GG	2eee	2cc# 2gg	[2A	8AA	8AA	2ccc#	2gg	2cc#	8AA	8AA	[2dd	[2g	[2dd
.	.	.	.	.	.	8A	8A	.	.	.	8A	8A	.	.	.
.	.	.	.	.	.	8AA	8AA	.	.	.	8AA	8AA	.	.	.
.	.	.	.	.	.	8AA	8AA	.	.	.	8AA	8AA	.	.	.
=218	=218	=218	=218	=218	=218	=218	=218	=218	=218	=218	=218	=218	=218	=218	=218
2r	4g]	2r	16g	16e	8A]	8AA	8AA	2r	2r	2r	8AA	8AA	4dd]	4g]	4dd]
.	.	.	16a	16f#	.	.	.	.	.	.	.	.	.	.	.
.	.	.	16b	16g	8a	8AA	8AA	.	.	.	8AA	8AA	.	.	.
.	.	.	16a	16f#	.	.	.	.	.	.	.	.	.	.	.
.	4r	.	8g	8e	8A	8AA	8AA	.	.	.	8AA	8AA	4r	4r	4r
.	.	.	8r	8r	8A	8AA	8AA	.	.	.	8AA	8AA	.	.	.
=219	=219	=219	=219	=219	=219	=219	=219	=219	=219	=219	=219	=219	=219	=219	=219
4ddd	4cc	4C	4f#	4f#	4A	8D	8D	4ddd	4ff#	4dd	8D	8D	2ee	2cc	4ee
.	.	.	.	.	.	8d	8d	.	.	.	8d	8d	.	.	.
4r	4r	4r	[4ddd	8.ff#	4r	8B	8B	4r	4r	4r	8B	8B	.	.	4r
.	.	.	.	.	.	8A	8A	.	.	.	8A	8A	.	.	.
.	.	.	.	32gg	.	.	.	.	.	.	.	.	.	.	.
.	.	.	.	32ff#	.	.	.	.	.	.	.	.	.	.	.
=220	=220	=220	=220	=220	=220	=220	=220	=220	=220	=220	=220	=220	=220	=220	=220
2r	2r	2r	4ddd]	4.ee	4b	8G	8G	2r	2r	2r	8G	8G	2r	2r	2r
.	.	.	.	.	.	8B	8B	.	.	.	8B	8B	.	.	.
.	.	.	[4ccc#	.	[4a	8A	8A	.	.	.	8A	8A	.	.	.
.	.	.	.	16ff#	.	8E	8E	.	.	.	8E	8E	.	.	.
.	.	.	.	16ee	.	.	.	.	.	.	.	.	.	.	.
=221	=221	=221	=221	=221	=221	=221	=221	=221	=221	=221	=221	=221	=221	=221	=221
2r	2r	2r	4ccc#]	4.dd	4a]	8F#	8F#	2r	2r	2r	8F#	8F#	2r	2r	2r
.	.	.	.	.	.	8D	8D	.	.	.	8D	8D	.	.	.
.	.	.	[4bb	.	[4g	8G	8G	.	.	.	8G	8G	.	.	.
.	.	.	.	16ee	.	8F#	8F#	.	.	.	8F#	8F#	.	.	.
.	.	.	.	16dd	.	.	.	.	.	.	.	.	.	.	.
=222	=222	=222	=222	=222	=222	=222	=222	=222	=222	=222	=222	=222	=222	=222	=222
2r	2r	2r	4bb]	4.cc#	4g]	8E	8E	2r	2r	2r	8E	8E	2r	2r	2r
.	.	.	.	.	.	8G	8G	.	.	.	8G	8G	.	.	.
.	.	.	[4aa	.	[4f#	8F#	8F#	.	.	.	8F#	8F#	.	.	.
.	.	.	.	16dd	.	8C#	8C#	.	.	.	8C#	8C#	.	.	.
.	.	.	.	16cc#	.	.	.	.	.	.	.	.	.	.	.
=223	=223	=223	=223	=223	=223	=223	=223	=223	=223	=223	=223	=223	=223	=223	=223
2r	2r	2r	4aa]	4.b	4f#]	8D	8D	2r	2r	2r	8D	8D	2r	2r	2r
.	.	.	.	.	.	8BB	8BB	.	.	.	8BB	8BB	.	.	.
.	.	.	[4gg	.	[4e	8E	8E	.	.	.	8E	8E	.	.	.
.	.	.	.	16cc#	.	8D	8D	.	.	.	8D	8D	.	.	.
.	.	.	.	16b	.	.	.	.	.	.	.	.	.	.	.
=224	=224	=224	=224	=224	=224	=224	=224	=224	=224	=224	=224	=224	=224	=224	=224
2r	4g	4GG	4gg]	2a	4e]	8C#	8C#	2r	2r	2r	8C#	8C#	2r	2r	4dd
.	.	.	.	.	.	8E	8E	.	.	.	8E	8E	.	.	.
.	4cc	4C	4ff#	.	4d	8D	8D	.	.	.	8D	8D	.	.	4ee
.	.	.	.	.	.	8F#	8F#	.	.	.	8F#	8F#	.	.	.
=225	=225	=225	=225	=225	=225	=225	=225	=225	=225	=225	=225	=225	=225	=225	=225
2r	4cc	4r	4ee 4g	4b	4g	8G	8G	2r	2r	2r	8G	8G	2r	2r	4dd
.	.	.	.	.	.	8E	8E	.	.	.	8E	8E	.	.	.
.	4g	4GG	4cc# 4e	4g 4A	4a	8A	8A	.	.	.	8A	8A	.	.	4dd
.	.	.	.	.	.	8AA	8AA	.	.	.	8AA	8AA	.	.	.
=226	=226	=226	=226	=226	=226	=226	=226	=226	=226	=226	=226	=226	=226	=226	=226
4dd	[2c	4C	4dd 4d	4A 4f#	4d	4D	4D	4dd	2ff#	2a	4D	4D	[2cc	[2c	[2cc
8ddd	.	4r	8ddd	4r	4r	4r	4r	8ddd	.	.	4r	4r	.	.	.
8aa	.	.	8aa	.	.	.	.	8aa	.	.	.	.	.	.	.
=227	=227	=227	=227	=227	=227	=227	=227	=227	=227	=227	=227	=227	=227	=227	=227
8ff#	2c_	2r	8ff#	2cc	2a	4D	4D	8ff#	2aa	2cc	4D	4D	2cc_	2c_	2cc_
8dd	.	.	8dd	.	.	.	.	8dd	.	.	.	.	.	.	.
8aa	.	.	8aa	.	.	4r	4r	8aa	.	.	4r	4r	.	.	.
8ff#	.	.	8ff#	.	.	.	.	8ff#	.	.	.	.	.	.	.
=228	=228	=228	=228	=228	=228	=228	=228	=228	=228	=228	=228	=228	=228	=228	=228
8gg	2c]	4C	8gg	2b	2g	4D	4D	8gg	2gg	2b	4D	4D	2cc]	2c]	2cc]
8dd	.	.	8dd	.	.	.	.	8dd	.	.	.	.	.	.	.
8bb	.	4r	8bb	.	.	4r	4r	8bb	.	.	4r	4r	.	.	.
8gg	.	.	8gg	.	.	.	.	8gg	.	.	.	.	.	.	.
=229	=229	=229	=229	=229	=229	=229	=229	=229	=229	=229	=229	=229	=229	=229	=229
8ee	2g	2r	8ee	2c#	4.e	4D	4D	8ee	2ee	2cc#	4D	4D	2dd	2g	2dd
8cc#	.	.	8cc#	.	.	.	.	8cc#	.	.	.	.	.	.	.
8ee	.	.	8ee	.	.	4r	4r	8ee	.	.	4r	4r	.	.	.
8g	.	.	8g	.	8g	.	.	8g	.	.	.	.	.	.	.
=230	=230	=230	=230	=230	=230	=230	=230	=230	=230	=230	=230	=230	=230	=230	=230
8f#	2cc	2C	8f#	2d	2f#	[2D	[2D	8f#	2ff#	2dd	[2D	[2D	2ee	2cc	2ee
8d	.	.	8d	.	.	.	.	8d	.	.	.	.	.	.	.
8ddd	.	.	8ddd	.	.	.	.	8ddd	.	.	.	.	.	.	.
8aa	.	.	8aa	.	.	.	.	8aa	.	.	.	.	.	.	.
=231	=231	=231	=231	=231	=231	=231	=231	=231	=231	=231	=231	=231	=231	=231	=231
8ff#	[2cc	2C	8ff#	2cc	2a	2D_	2D_	8ff#	2aa	2cc	2D_	2D_	[2cc	[2cc	[2cc
8dd	.	.	8dd	.	.	.	.	8dd	.	.	.	.	.	.	.
8aa	.	.	8aa	.	.	.	.	8aa	.	.	.	.	.	.	.
8ff#	.	.	8ff#	.	.	.	.	8ff#	.	.	.	.	.	.	.
=232	=232	=232	=232	=232	=232	=232	=232	=232	=232	=232	=232	=232	=232	=232	=232
8gg	2cc]	2C	8gg	2b	2g	2D_	2D_	8gg	2gg	2b	2D_	2D_	2cc]	2cc]	2cc]
8dd	.	.	8dd	.	.	.	.	8dd	.	.	.	.	.	.	.
16bb	.	.	16bb	.	.	.	.	16bb	.	.	.	.	.	.	.
16aa	.	.	16aa	.	.	.	.	16aa	.	.	.	.	.	.	.
16gg	.	.	16gg	.	.	.	.	16gg	.	.	.	.	.	.	.
16ff#	.	.	16ff#	.	.	.	.	16ff#	.	.	.	.	.	.	.
=233	=233	=233	=233	=233	=233	=233	=233	=233	=233	=233	=233	=233	=233	=233	=233
16ee	2g	2C	16ee	2c#	2E	2D]	2D]	16ee	2ee	2cc#	2D]	2D]	2dd	2g	2dd
16dd	.	.	16dd	.	.	.	.	16dd	.	.	.	.	.	.	.
16cc#	.	.	16cc#	.	.	.	.	16cc#	.	.	.	.	.	.	.
16b	.	.	16b	.	.	.	.	16b	.	.	.	.	.	.	.
16a	.	.	16a	.	.	.	.	16a	.	.	.	.	.	.	.
16g	.	.	16g	.	.	.	.	16g	.	.	.	.	.	.	.
16f#	.	.	16f#	.	.	.	.	16f#	.	.	.	.	.	.	.
16e	.	.	16e	.	.	.	.	16e	.	.	.	.	.	.	.
=234	=234	=234	=234	=234	=234	=234	=234	=234	=234	=234	=234	=234	=234	=234	=234
4d	4cc	4C	4d	4d	4F#	4D	4D	4d	4ff#	4dd	4D	4D	4ee	4cc	4ee
8ddd	4r	4r	4r	4r	4r	4r	4r	8ddd	8ddd	8dd	8d	8d	8ccc	4r	4r
8aa	.	.	.	.	.	.	.	8aa	8aa	8a	8A	8A	8gg	.	.
=235	=235	=235	=235	=235	=235	=235	=235	=235	=235	=235	=235	=235	=235	=235	=235
8ff#	4r	4r	4r	4r	4r	4r	4r	8ff#	8ff#	8f#	8F#	8F#	8ee	4r	4r
8aa	.	.	.	.	.	.	.	8aa	8aa	8a	8A	8A	8gg	.	.
8gg	4g	4GG	4ccc# 4a	4a 4ee	4A	4AA	4AA	8gg	8gg	8g	8G	8G	8ff	4g	4dd
8ee	.	.	.	.	.	.	.	8ee	8ee	8e	8E	8E	8dd	.	.
=236	=236	=236	=236	=236	=236	=236	=236	=236	=236	=236	=236	=236	=236	=236	=236
8ff#	4cc	4C	4d 4dd 4ddd	4ff# 4a 4d	4A	4D	4D	8ff#	8ff#	8f#	8F#	8F#	4ee	4cc	4ee
8dd	.	.	.	.	.	.	.	8dd	8dd	8d	8D	8D	.	.	.
8ddd	4r	4r	4r	4r	4r	4r	4r	8ddd	8ddd	8dd	8d	8d	8ccc	4r	4r
8aa	.	.	.	.	.	.	.	8aa	8aa	8a	8A	8A	8gg	.	.
=237	=237	=237	=237	=237	=237	=237	=237	=237	=237	=237	=237	=237	=237	=237	=237
8ff#	4r	4r	4r	4r	4r	4r	4r	8ff#	8ff#	8f#	8F#	8F#	8ee	4r	4r
8aa	.	.	.	.	.	.	.	8aa	8aa	8a	8A	8A	8gg	.	.
8gg	4g	4GG	4ccc# 4a	4ee 4a	4A	4AA	4AA	8gg	8gg	8g	8G	8G	8ff	4g	4dd
8ee	.	.	.	.	.	.	.	8ee	8ee	8e	8E	8E	8dd	.	.
=238	=238	=238	=238	=238	=238	=238	=238	=238	=238	=238	=238	=238	=238	=238	=238
4dd	4cc	4C	4dd 4d 4ddd	4d 4ff# 4a	4A	4D	4D	4dd	4dd	4f#	4F#	4F#	4ee	4cc	4ee
4r	4r	4r	4r	4r	4r	4r	4r	4r	4r	4r	4r	4r	4r	4r	4r
=239	=239	=239	=239	=239	=239	=239	=239	=239	=239	=239	=239	=239	=239	=239	=239
4ddd	4c	4C	4d	4d	4D	4D	4D	4ddd	4ff#	4dd	4D	4D	4ee	4cc	4c
8.r	8.r	8.r	8.r	8.r	8.r	8.r	8.r	8.r	8.r	8.r	8.r	8.r	8.r	8.r	8.r
16ddd	16c	16C	16d	16d	16D	16D	16D	16ddd	16ff#	16dd	16D	16D	16ee	16cc	16c
=240	=240	=240	=240	=240	=240	=240	=240	=240	=240	=240	=240	=240	=240	=240	=240
4ddd	4c	4C	4d	4d	4D	4D	4D	4ddd	4ff#	4dd	4D	4D	4ee	4cc	4c
4r	4r	4r	4r	4r	4r	4r	4r	4r	4r	4r	4r	4r	4r	4r	4r
==	==	==	==	==	==	==	==	==	==	==	==	==	==	==	==
*-	*-	*-	*-	*-	*-	*-	*-	*-	*-	*-	*-	*-	*-	*-	*-
!!!RWG1: This file contains only pitch and duration data.
!!!RWG2: Transposing instruments are not transposed.
!!!RWG3: Spines may have incompatible meters.
!!!RWG4: Durations of rests and tied notes may be interpreted.
!!!RWG: Key is interpreted using the Humdrum key tool.
!!!OPT: The Miracle
!!!AFT: stage1
!!!END: 1997/04/15
!!format changes:
!!content changes:
!!public access: complete
!!!KEY: 2759003654
!!!EMD: Converted from MuseData to Humdrum Dec 16, 2000, by Andreas Kornstaedt using muse2kern.
